ColorChecker24/original/ColorChecker24.ti1
CTI1   

DESCRIPTOR "Argyll Calibration Target chart information 1"
ORIGINATOR "Argyll targen"
CREATED "Sun Oct 12 19:35:37 2025"
APPROX_WHITE_POINT "96.420000 100.000000 82.490000"
COLOR_REP "CMYK"
TOTAL_INK_LIMIT "400.0"
COMP_GREY_STEPS "6"
OFPS_PATCHES "18"

NUMBER_OF_FIELDS 8
BEGIN_DATA_FORMAT
SAMPLE_ID CMYK_C CMYK_M CMYK_Y CMYK_K XYZ_X XYZ_Y XYZ_Z 
END_DATA_FORMAT

NUMBER_OF_SETS 24
BEGIN_DATA
1 0.00000 0.00000 0.00000 0.00000 96.42000 100.0000 82.49000 
2 20.00000 20.00000 20.00000 0.00000 44.70358 43.31570 32.39338 
3 40.00000 40.00000 40.00000 0.00000 19.97850 17.64464 12.00937 
4 60.00000 60.00000 60.00000 0.00000 9.011246 7.197160 4.493003 
5 80.00000 80.00000 80.00000 0.00000 4.724557 3.547624 2.053254 
6 100.0000 100.0000 100.0000 0.00000 3.727728 2.770200 1.551891 
7 0.00000 0.00000 0.00000 100.0000 1.000000 1.000000 1.000000 
8 100.0000 100.0000 100.0000 100.0000 0.0386614 0.0277020 0.0188131 
9 100.0000 0.00000 0.00000 0.00000 12.00000 18.00000 48.00000 
10 0.00000 0.00000 100.0000 0.00000 76.00000 81.00000 11.00000 
11 100.0000 0.00000 100.0000 0.00000 9.458619 14.58000 6.400776 
12 0.00000 0.00000 100.0000 100.0000 0.788218 0.810000 0.133349 
13 0.00000 100.0000 0.00000 55.95447 6.586238 3.287226 3.495701 
14 100.0000 100.0000 0.00000 0.00000 4.729309 3.420000 11.63777 
15 0.00000 100.0000 100.0000 55.28749 5.355470 2.746990 0.480734 
16 0.00000 100.0000 0.00000 0.00000 38.00000 19.00000 20.00000 
17 100.0000 0.00000 42.93027 49.69368 2.332044 3.557110 4.258258 
18 100.0000 100.0000 0.00000 67.11741 0.454180 0.327280 1.136253 
19 56.95195 24.49612 0.00000 47.37433 4.568991 4.852359 8.782502 
20 63.29898 16.76305 100.0000 53.70590 2.577981 3.071934 1.000945 
21 3.096543 53.95455 93.10909 15.01006 25.35182 18.13262 2.907361 
22 3.237011 7.840780 51.34824 43.90327 19.50699 19.94638 6.301314 
23 61.94546 85.83755 44.53764 42.24946 2.300502 1.472353 1.498948 
24 57.57467 45.95555 43.75073 87.49893 0.238224 0.212004 0.196513 
END_DATA
CTI1   

DESCRIPTOR "Argyll Calibration Target chart information 1"
ORIGINATOR "Argyll targen"
DENSITY_EXTREME_VALUES "8"
CREATED "October 12, 2025"

NUMBER_OF_FIELDS 8
BEGIN_DATA_FORMAT
INDEX CMYK_C CMYK_M CMYK_Y CMYK_K XYZ_X XYZ_Y XYZ_Z 
END_DATA_FORMAT

NUMBER_OF_SETS 8
BEGIN_DATA
0 0.00000 0.00000 0.00000 0.00000 96.42000 100.0000 82.49000 
1 100.0000 0.00000 0.00000 0.00000 12.00000 18.00000 48.00000 
2 0.00000 100.0000 0.00000 0.00000 38.00000 19.00000 20.00000 
3 100.0000 0.00000 0.00000 45.48599 3.250329 4.870569 13.06325 
4 0.00000 17.99717 100.0000 0.00000 59.71219 57.79270 8.052482 
5 100.0000 0.00000 100.0000 40.02275 3.138076 4.833535 2.131148 
6 0.00000 100.0000 100.0000 18.08912 19.42034 9.976475 1.730872 
7 0.00000 31.32711 0.00000 100.0000 0.659156 0.544334 0.573842 
END_DATA
CTI1   

DESCRIPTOR "Argyll Calibration Target chart information 1"
ORIGINATOR "Argyll targen"
DEVICE_COMBINATION_VALUES "9"
CREATED "October 12, 2025"

NUMBER_OF_FIELDS 8
BEGIN_DATA_FORMAT
INDEX CMYK_C CMYK_M CMYK_Y CMYK_K XYZ_X XYZ_Y XYZ_Z 
END_DATA_FORMAT

NUMBER_OF_SETS 9
BEGIN_DATA
0 0.00000 0.00000 0.00000 0.00000 96.42000 100.0000 82.49000 
1 100.0000 0.00000 0.00000 0.00000 12.00000 18.00000 48.00000 
2 0.00000 100.0000 0.00000 0.00000 38.00000 19.00000 20.00000 
3 100.0000 100.0000 0.00000 0.00000 4.729309 3.420000 11.63777 
4 0.00000 0.00000 100.0000 0.00000 76.00000 81.00000 11.00000 
5 100.0000 0.00000 100.0000 0.00000 9.458619 14.58000 6.400776 
6 0.00000 100.0000 100.0000 0.00000 29.95229 15.39000 2.666990 
7 100.0000 100.0000 100.0000 100.0000 0.0386614 0.0277020 0.0188131 
8 50.00000 50.00000 50.00000 0.00000 13.32842 11.17825 7.279335 
END_DATA
