ColorChecker24/original/ColorChecker24-orig2000.ti3
CTI3   

DESCRIPTOR "Argyll Calibration Target chart information 3"
ORIGINATOR "Argyll chartread"
CREATED "Sun Oct 12 18:40:43 2025"
DEVICE_CLASS "OUTPUT"
COMP_GREY_STEPS "6"
TOTAL_INK_LIMIT "300.0"
COLOR_REP "CMY_XYZ"
TARGET_INSTRUMENT "Unknown Instrument"

NUMBER_OF_FIELDS 8
BEGIN_DATA_FORMAT
SAMPLE_ID SAMPLE_LOC CMY_C CMY_M CMY_Y XYZ_X XYZ_Y XYZ_Z 
END_DATA_FORMAT

NUMBER_OF_SETS 24
BEGIN_DATA
1 "A1" 0.00000 0.00000 0.00000 1.208887 1.473719 1.628581 
2 "A2" 20.00000 20.00000 20.00000 3.534358 4.069534 3.181528 
3 "A3" 40.00000 40.00000 40.00000 12.84397 14.37075 10.94201 
4 "A4" 60.00000 60.00000 60.00000 29.39908 31.91190 24.55680 
5 "A5" 80.00000 80.00000 80.00000 56.88938 60.83507 45.13039 
6 "A6" 100.0000 100.0000 100.0000 83.35710 87.90280 72.05827 
7 "B1" 0.00000 0.00000 100.0000 4.327174 2.277306 15.25644 
8 "B2" 100.0000 0.00000 0.00000 20.70987 10.69386 0.924109 
9 "B3" 100.0000 0.00000 100.0000 22.14783 11.14283 21.01264 
10 "B4" 100.0000 100.0000 0.00000 64.77247 71.77463 6.917010 
11 "B5" 0.00000 100.0000 0.00000 6.305897 16.25710 5.452538 
12 "B6" 0.00000 100.0000 100.0000 11.69579 20.59196 31.85569 
13 "C1" 0.00000 49.94430 100.0000 9.016317 10.80495 30.32267 
14 "C2" 50.28611 0.00000 100.0000 8.031453 4.158915 17.86392 
15 "C3" 100.0000 0.00000 49.35683 22.78154 11.49991 7.300720 
16 "C4" 49.84054 100.0000 0.00000 22.29939 35.96085 6.200195 
17 "C5" 100.0000 60.58137 51.46868 46.08382 39.42777 20.26773 
18 "C6" 48.61067 40.92775 0.00000 14.01427 15.16547 3.328088 
19 "D1" 0.00000 46.09598 38.54124 4.336174 9.484033 6.966417 
20 "D2" 40.83314 0.00000 40.15412 6.138335 3.747940 7.357982 
21 "D3" 72.62226 38.46189 95.91669 23.88363 17.93732 35.29939 
22 "D4" 47.60204 100.0000 40.92164 25.32097 40.74942 10.14697 
23 "D5" 24.77760 81.43587 70.69200 14.29254 25.15899 23.75271 
24 "D6" 19.22179 20.93996 69.82681 6.053363 5.240773 18.79055 
END_DATA
