ColorChecker24/original/ColorChecker24-orig2000sand.ti3
CTI3   

DESCRIPTOR "Argyll Calibration Target chart information 3"
ORIGINATOR "Argyll chartread"
CREATED "Sun Oct 12 18:43:21 2025"
DEVICE_CLASS "OUTPUT"
COMP_GREY_STEPS "6"
TOTAL_INK_LIMIT "300.0"
COLOR_REP "CMY_XYZ"
TARGET_INSTRUMENT "Unknown Instrument"

NUMBER_OF_FIELDS 8
BEGIN_DATA_FORMAT
SAMPLE_ID SAMPLE_LOC CMY_C CMY_M CMY_Y XYZ_X XYZ_Y XYZ_Z 
END_DATA_FORMAT

NUMBER_OF_SETS 24
BEGIN_DATA
1 "A1" 0.00000 0.00000 0.00000 1.696801 1.881012 2.314059 
2 "A2" 20.00000 20.00000 20.00000 3.532443 3.981444 3.553953 
3 "A3" 40.00000 40.00000 40.00000 12.41967 13.66595 11.46128 
4 "A4" 60.00000 60.00000 60.00000 27.38448 29.33939 24.70281 
5 "A5" 80.00000 80.00000 80.00000 52.48894 55.41550 45.07276 
6 "A6" 100.0000 100.0000 100.0000 77.61346 80.68200 72.45865 
7 "B1" 0.00000 0.00000 100.0000 4.770331 2.628486 15.84047 
8 "B2" 100.0000 0.00000 0.00000 19.95747 10.13858 1.418186 
9 "B3" 100.0000 0.00000 100.0000 21.85315 11.07709 21.68107 
10 "B4" 100.0000 100.0000 0.00000 58.82839 64.56678 7.296654 
11 "B5" 0.00000 100.0000 0.00000 6.357427 15.68615 6.105465 
12 "B6" 0.00000 100.0000 100.0000 11.92680 20.24224 32.39518 
13 "C1" 0.00000 49.94430 100.0000 8.728537 10.15546 30.06417 
14 "C2" 50.28611 0.00000 100.0000 7.939651 4.005616 18.11404 
15 "C3" 100.0000 0.00000 49.35683 21.73952 10.88730 7.731948 
16 "C4" 49.84054 100.0000 0.00000 20.31277 33.13491 6.345085 
17 "C5" 100.0000 60.58137 51.46868 43.05406 36.40735 20.81881 
18 "C6" 48.61067 40.92775 0.00000 13.44176 14.42047 4.012813 
19 "D1" 0.00000 46.09598 38.54124 4.429114 9.297029 7.341299 
20 "D2" 40.83314 0.00000 40.15412 5.974675 3.627603 7.548791 
21 "D3" 72.62226 38.46189 95.91669 22.69169 16.53600 35.36461 
22 "D4" 47.60204 100.0000 40.92164 23.32879 37.98560 10.36549 
23 "D5" 24.77760 81.43587 70.69200 13.36040 23.36860 23.49521 
24 "D6" 19.22179 20.93996 69.82681 6.261637 5.291643 19.07878 
END_DATA
