ColorChecker24/original/ColorChecker24-orig1500sand.ti3
CTI3   

DESCRIPTOR "Argyll Calibration Target chart information 3"
ORIGINATOR "Argyll chartread"
CREATED "Sun Oct 12 18:44:06 2025"
DEVICE_CLASS "OUTPUT"
COMP_GREY_STEPS "6"
TOTAL_INK_LIMIT "300.0"
COLOR_REP "CMY_XYZ"
TARGET_INSTRUMENT "Unknown Instrument"

NUMBER_OF_FIELDS 8
BEGIN_DATA_FORMAT
SAMPLE_ID SAMPLE_LOC CMY_C CMY_M CMY_Y XYZ_X XYZ_Y XYZ_Z 
END_DATA_FORMAT

NUMBER_OF_SETS 24
BEGIN_DATA
1 "A1" 0.00000 0.00000 0.00000 2.266361 2.601145 2.495558 
2 "A2" 20.00000 20.00000 20.00000 4.715215 5.313544 4.219121 
3 "A3" 40.00000 40.00000 40.00000 13.02264 14.62052 11.00115 
4 "A4" 60.00000 60.00000 60.00000 28.79747 31.28799 24.05464 
5 "A5" 80.00000 80.00000 80.00000 55.56121 59.70944 44.45366 
6 "A6" 100.0000 100.0000 100.0000 84.27013 88.99900 73.09566 
7 "B1" 0.00000 0.00000 100.0000 5.208387 3.292715 15.52055 
8 "B2" 100.0000 0.00000 0.00000 21.33253 11.70291 2.013692 
9 "B3" 100.0000 0.00000 100.0000 22.15891 11.91456 20.82051 
10 "B4" 100.0000 100.0000 0.00000 65.04307 71.56751 7.981364 
11 "B5" 0.00000 100.0000 0.00000 7.785363 17.35157 6.860924 
12 "B6" 0.00000 100.0000 100.0000 12.91758 21.73061 31.63829 
13 "C1" 0.00000 49.94430 100.0000 9.670320 11.24495 30.07310 
14 "C2" 50.28611 0.00000 100.0000 8.614771 5.072384 17.95393 
15 "C3" 100.0000 0.00000 49.35683 23.05081 12.41614 7.520926 
16 "C4" 49.84054 100.0000 0.00000 22.71345 36.07868 7.374860 
17 "C5" 100.0000 60.58137 51.46868 45.02091 38.76404 20.00791 
18 "C6" 48.61067 40.92775 0.00000 14.95428 16.11117 5.192290 
19 "D1" 0.00000 46.09598 38.54124 6.082590 11.02349 8.260996 
20 "D2" 40.83314 0.00000 40.15412 6.847702 4.918049 7.733445 
21 "D3" 72.62226 38.46189 95.91669 23.21071 17.60218 34.29935 
22 "D4" 47.60204 100.0000 40.92164 25.22839 40.38094 10.90631 
23 "D5" 24.77760 81.43587 70.69200 14.23808 24.70820 22.76393 
24 "D6" 19.22179 20.93996 69.82681 7.314834 6.677007 18.61714 
END_DATA
