ColorChecker24/original/ColorChecker24-orig2000sand.ti2
CTI2   

DESCRIPTOR "Argyll Calibration Target chart information 2"
ORIGINATOR "Argyll printtarg"
CREATED "Sun Oct 12 12:22:15 2025"
TARGET_INSTRUMENT "GretagMacbeth SpectroScan"
COMP_GREY_STEPS "6"
APPROX_WHITE_POINT "96.420000 100.000000 82.490000"
TOTAL_INK_LIMIT "300.0"
COLOR_REP "CMY"
PAPER_SIZE "101.6x152.4"
CHART_ID "15"
STEPS_IN_PASS "6"
PASSES_IN_STRIPS2 "4"
STRIP_INDEX_PATTERN "A-Z, A-Z"
PATCH_INDEX_PATTERN "0-9,@-9,@-9;1-999"
INDEX_ORDER "STRIP_THEN_PATCH"

NUMBER_OF_FIELDS 8
BEGIN_DATA_FORMAT
SAMPLE_ID SAMPLE_LOC CMY_C CMY_M CMY_Y XYZ_X XYZ_Y XYZ_Z 
END_DATA_FORMAT

NUMBER_OF_SETS 24
BEGIN_DATA
1 "A1" 0.00000 0.00000 0.00000 96.42000 100.0000 82.49000 
2 "A2" 20.00000 20.00000 20.00000 44.70358 43.31570 32.39338 
3 "A3" 40.00000 40.00000 40.00000 19.97850 17.64464 12.00937 
4 "A4" 60.00000 60.00000 60.00000 9.011246 7.197160 4.493003 
5 "A5" 80.00000 80.00000 80.00000 4.724557 3.547624 2.053254 
6 "A6" 100.0000 100.0000 100.0000 3.727728 2.770200 1.551891 
7 "B1" 0.00000 0.00000 100.0000 76.00000 81.00000 11.00000 
8 "B2" 100.0000 0.00000 0.00000 12.00000 18.00000 48.00000 
9 "B3" 100.0000 0.00000 100.0000 9.458619 14.58000 6.400776 
10 "B4" 100.0000 100.0000 0.00000 4.729309 3.420000 11.63777 
11 "B5" 0.00000 100.0000 0.00000 38.00000 19.00000 20.00000 
12 "B6" 0.00000 100.0000 100.0000 29.95229 15.39000 2.666990 
13 "C1" 0.00000 49.94430 100.0000 39.99852 29.70413 4.485002 
14 "C2" 50.28611 0.00000 100.0000 23.75916 28.85446 7.389204 
15 "C3" 100.0000 0.00000 49.35683 10.02748 15.34554 15.71239 
16 "C4" 49.84054 100.0000 0.00000 12.02138 6.834732 13.47056 
17 "C5" 100.0000 60.58137 51.46868 4.711549 4.498751 5.061543 
18 "C6" 48.61067 40.92775 0.00000 18.41775 16.42330 26.88842 
19 "D1" 0.00000 46.09598 38.54124 45.62315 34.82908 15.51172 
20 "D2" 40.83314 0.00000 40.15412 33.07458 38.20752 24.34084 
21 "D3" 72.62226 38.46189 95.91669 8.017547 8.630002 3.371156 
22 "D4" 47.60204 100.0000 40.92164 10.90355 6.243443 5.538701 
23 "D5" 24.77760 81.43587 70.69200 18.74928 10.67980 3.323276 
24 "D6" 19.22179 20.93996 69.82681 39.31752 38.39849 9.438444 
END_DATA
