ColorChecker24/original/ColorChecker24.ti2
CTI2   

DESCRIPTOR "Argyll Calibration Target chart information 2"
ORIGINATOR "Argyll printtarg"
CREATED "Sun Oct 12 19:38:14 2025"
TARGET_INSTRUMENT "GretagMacbeth SpectroScan"
COMP_GREY_STEPS "6"
APPROX_WHITE_POINT "96.420000 100.000000 82.490000"
TOTAL_INK_LIMIT "400.0"
COLOR_REP "CMYK"
PAPER_SIZE "101.6x152.4"
CHART_ID "14"
STEPS_IN_PASS "6"
PASSES_IN_STRIPS2 "4"
STRIP_INDEX_PATTERN "A-Z, A-Z"
PATCH_INDEX_PATTERN "0-9,@-9,@-9;1-999"
INDEX_ORDER "STRIP_THEN_PATCH"

NUMBER_OF_FIELDS 9
BEGIN_DATA_FORMAT
SAMPLE_ID SAMPLE_LOC CMYK_C CMYK_M CMYK_Y CMYK_K XYZ_X XYZ_Y XYZ_Z 
END_DATA_FORMAT

NUMBER_OF_SETS 24
BEGIN_DATA
1 "A1" 0.00000 0.00000 0.00000 0.00000 96.42000 100.0000 82.49000 
2 "A2" 20.00000 20.00000 20.00000 0.00000 44.70358 43.31570 32.39338 
3 "A3" 40.00000 40.00000 40.00000 0.00000 19.97850 17.64464 12.00937 
4 "A4" 60.00000 60.00000 60.00000 0.00000 9.011246 7.197160 4.493003 
5 "A5" 80.00000 80.00000 80.00000 0.00000 4.724557 3.547624 2.053254 
6 "A6" 100.0000 100.0000 100.0000 0.00000 3.727728 2.770200 1.551891 
7 "B1" 0.00000 0.00000 0.00000 100.0000 1.000000 1.000000 1.000000 
8 "B2" 100.0000 100.0000 100.0000 100.0000 0.0386614 0.0277020 0.0188131 
9 "B3" 100.0000 0.00000 0.00000 0.00000 12.00000 18.00000 48.00000 
10 "B4" 0.00000 0.00000 100.0000 0.00000 76.00000 81.00000 11.00000 
11 "B5" 100.0000 0.00000 100.0000 0.00000 9.458619 14.58000 6.400776 
12 "B6" 0.00000 0.00000 100.0000 100.0000 0.788218 0.810000 0.133349 
13 "C1" 0.00000 100.0000 0.00000 55.95483 6.586238 3.287226 3.495701 
14 "C2" 100.0000 100.0000 0.00000 0.00000 4.729309 3.420000 11.63777 
15 "C3" 0.00000 100.0000 100.0000 55.28801 5.355470 2.746990 0.480734 
16 "C4" 0.00000 100.0000 0.00000 0.00000 38.00000 19.00000 20.00000 
17 "C5" 100.0000 0.00000 42.92973 49.69406 2.332044 3.557110 4.258258 
18 "C6" 100.0000 100.0000 0.00000 67.11681 0.454180 0.327280 1.136253 
19 "D1" 56.95125 24.49683 0.00000 47.37469 4.568991 4.852359 8.782502 
20 "D2" 63.29900 16.76356 100.0000 53.70565 2.577981 3.071934 1.000945 
21 "D3" 3.096056 53.95438 93.10903 15.01030 25.35182 18.13262 2.907361 
22 "D4" 3.236439 7.840085 51.34813 43.90326 19.50699 19.94638 6.301314 
23 "D5" 61.94553 85.83810 44.53803 42.24918 2.300502 1.472353 1.498948 
24 "D6" 57.57534 45.95560 43.75067 87.49828 0.238224 0.212004 0.196513 
END_DATA
