ColorChecker24/original/ColorChecker24-orig1500.ti3
CTI3   

DESCRIPTOR "Argyll Calibration Target chart information 3"
ORIGINATOR "Argyll chartread"
CREATED "Sun Oct 12 18:43:46 2025"
DEVICE_CLASS "OUTPUT"
COMP_GREY_STEPS "6"
TOTAL_INK_LIMIT "300.0"
COLOR_REP "CMY_XYZ"
TARGET_INSTRUMENT "Unknown Instrument"

NUMBER_OF_FIELDS 8
BEGIN_DATA_FORMAT
SAMPLE_ID SAMPLE_LOC CMY_C CMY_M CMY_Y XYZ_X XYZ_Y XYZ_Z 
END_DATA_FORMAT

NUMBER_OF_SETS 24
BEGIN_DATA
1 "A1" 0.00000 0.00000 0.00000 1.168940 1.476831 1.477545 
2 "A2" 20.00000 20.00000 20.00000 3.253319 3.823752 2.851305 
3 "A3" 40.00000 40.00000 40.00000 11.91061 13.51555 9.889670 
4 "A4" 60.00000 60.00000 60.00000 26.07466 28.48007 22.04585 
5 "A5" 80.00000 80.00000 80.00000 54.82843 58.96072 43.68227 
6 "A6" 100.0000 100.0000 100.0000 82.53033 87.21638 71.59567 
7 "B1" 0.00000 0.00000 100.0000 4.312403 2.329648 15.00917 
8 "B2" 100.0000 0.00000 0.00000 20.26393 10.47972 0.764660 
9 "B3" 100.0000 0.00000 100.0000 21.13306 10.62990 20.00011 
10 "B4" 100.0000 100.0000 0.00000 63.82991 70.68143 6.601032 
11 "B5" 0.00000 100.0000 0.00000 5.958976 15.73132 5.113965 
12 "B6" 0.00000 100.0000 100.0000 11.12981 20.02016 30.43161 
13 "C1" 0.00000 49.94430 100.0000 8.715593 10.26279 29.59789 
14 "C2" 50.28611 0.00000 100.0000 7.582662 3.966385 17.17848 
15 "C3" 100.0000 0.00000 49.35683 21.96242 11.14882 6.533126 
16 "C4" 49.84054 100.0000 0.00000 21.42893 35.01456 5.941924 
17 "C5" 100.0000 60.58137 51.46868 42.87262 36.46012 18.20348 
18 "C6" 48.61067 40.92775 0.00000 12.85178 14.01191 3.028152 
19 "D1" 0.00000 46.09598 38.54124 4.235547 9.318275 6.653384 
20 "D2" 40.83314 0.00000 40.15412 5.602213 3.546034 6.684496 
21 "D3" 72.62226 38.46189 95.91669 22.39792 16.69232 33.76073 
22 "D4" 47.60204 100.0000 40.92164 23.52149 38.44867 9.306768 
23 "D5" 24.77760 81.43587 70.69200 12.97072 23.24128 21.64748 
24 "D6" 19.22179 20.93996 69.82681 5.622648 4.876507 17.52952 
END_DATA
