selphy-cp730/selphy.ti3
CTI3   

DESCRIPTOR "Argyll Calibration Target chart information 3"
ORIGINATOR "Argyll chartread"
CREATED "Sun Oct 12 23:03:27 2025"
DEVICE_CLASS "OUTPUT"
COMP_GREY_STEPS "13"
TOTAL_INK_LIMIT "400.0"
COLOR_REP "iRGB_XYZ"
TARGET_INSTRUMENT "Unknown Instrument"

NUMBER_OF_FIELDS 8
BEGIN_DATA_FORMAT
SAMPLE_ID SAMPLE_LOC RGB_R RGB_G RGB_B XYZ_X XYZ_Y XYZ_Z 
END_DATA_FORMAT

NUMBER_OF_SETS 104
BEGIN_DATA
1 "A1" 100.0000 100.0000 100.0000 81.56389 85.55091 71.06319 
2 "A2" 91.66705 91.66705 91.66705 76.48723 79.45551 66.33192 
3 "A3" 83.33257 83.33257 83.33257 61.02777 64.25816 49.86465 
4 "A4" 74.99962 74.99962 74.99962 50.29267 53.33097 41.61236 
5 "A5" 66.66667 66.66667 66.66667 38.23313 40.72099 31.77566 
6 "A6" 58.33371 58.33371 58.33371 29.15396 31.10955 24.75862 
7 "A7" 50.00076 50.00076 50.00076 21.74462 23.24128 18.50617 
8 "A8" 41.66629 41.66629 41.66629 14.59611 15.73886 12.73221 
9 "A9" 33.33333 33.33333 33.33333 9.239951 10.03211 8.066282 
10 "A10" 25.00038 25.00038 25.00038 5.582873 6.090640 4.991710 
11 "A11" 16.66743 16.66743 16.66743 2.824947 3.117895 2.639976 
12 "A12" 8.332952 8.332952 8.332952 1.563705 1.855519 2.118619 
13 "A13" 0.00000 0.00000 0.00000 1.317473 1.575467 1.986777 
14 "B1" 100.0000 0.00000 100.0000 23.15979 12.18586 20.69297 
15 "B2" 0.00000 100.0000 0.00000 6.416278 15.85979 6.485322 
16 "B3" 0.00000 0.00000 100.0000 3.466294 2.168947 15.06294 
17 "B4" 100.0000 100.0000 0.00000 67.45068 72.00293 8.142046 
18 "B5" 100.0000 0.00000 0.00000 23.10003 12.02763 1.394868 
19 "B6" 0.00000 100.0000 100.0000 10.63030 19.68572 34.63033 
20 "B7" 0.00000 35.51232 100.0000 6.349454 7.395122 26.92153 
21 "B8" 100.0000 0.00000 64.98970 25.04879 13.21807 13.89323 
22 "B9" 100.0000 51.24285 0.00000 36.78961 26.32047 3.703400 
23 "B10" 0.00000 100.0000 51.37560 7.544461 17.78967 12.17792 
24 "B11" 66.41794 100.0000 0.00000 35.51445 47.56543 7.587501 
25 "B12" 49.83139 0.00000 100.0000 7.808080 4.578997 18.05586 
26 "B13" 0.00000 65.40017 0.00000 5.156167 12.55180 5.955304 
27 "C1" 0.00000 0.00000 66.42100 2.952870 1.970186 12.15874 
28 "C2" 100.0000 34.00626 100.0000 35.16228 24.13229 35.48531 
29 "C3" 32.28351 0.00000 0.00000 4.914628 3.518193 1.875068 
30 "C4" 100.0000 100.0000 50.39445 73.39615 80.52521 31.29829 
31 "C5" 51.14061 100.0000 100.0000 39.20863 50.62287 61.58692 
32 "C6" 100.0000 0.00000 32.65888 23.65164 12.23678 3.581396 
33 "C7" 0.00000 56.30884 42.94957 5.414031 12.19858 10.30503 
34 "C8" 39.35454 33.73465 0.00000 10.46907 11.57345 3.930315 
35 "C9" 31.98444 100.0000 71.17418 22.01372 35.93470 25.64109 
36 "C10" 33.65835 0.00000 37.39071 5.022695 3.490498 6.623321 
37 "C11" 61.50301 51.32067 100.0000 24.33573 23.32938 42.10912 
38 "C12" 100.0000 31.24285 23.88800 30.99900 19.45036 4.488880 
39 "C13" 100.0000 64.37476 100.0000 61.12340 51.94845 55.28672 
40 "D1" 100.0000 27.64172 63.77813 33.46953 21.34959 19.64292 
41 "D2" 100.0000 80.66987 68.85176 67.03384 65.53760 41.74932 
42 "D3" 36.19135 64.96376 0.00000 14.36609 22.85242 6.340456 
43 "D4" 65.57717 0.00000 34.08255 14.12180 7.841223 5.286019 
44 "D5" 0.00000 35.46654 65.79385 5.764122 7.639252 22.75452 
45 "D6" 34.21073 100.0000 0.00000 15.76939 28.07895 7.122048 
46 "D7" 0.00000 32.51240 0.00000 2.641759 5.001838 3.628456 
47 "D8" 68.63966 100.0000 35.70459 41.75542 54.82438 14.26263 
48 "D9" 33.74228 73.00069 100.0000 15.44241 22.11613 44.42456 
49 "D10" 33.98337 31.09941 100.0000 10.04629 10.08805 30.16726 
50 "D11" 0.00000 65.16518 100.0000 8.345206 12.50000 34.17803 
51 "D12" 100.0000 73.26619 25.48562 56.02554 53.36499 9.948816 
52 "D13" 74.04288 68.04608 0.00000 37.95472 40.33857 6.380805 
53 "E1" 0.00000 31.76013 29.24849 2.588671 4.460863 5.508531 
54 "E2" 0.00000 0.00000 33.09377 1.601572 1.580348 4.353508 
55 "E3" 37.75235 74.13748 33.18685 14.91383 25.15899 8.851452 
56 "E4" 79.92218 38.35966 52.03174 27.59195 20.30472 17.51752 
57 "E5" 65.80606 0.00000 0.00000 15.17034 8.304912 1.457279 
58 "E6" 100.0000 54.84550 59.34997 47.91445 38.27117 24.61449 
59 "E7" 29.84360 100.0000 35.39635 15.84965 28.73834 9.049654 
60 "E8" 71.32525 100.0000 70.78508 56.67578 68.00710 38.47191 
61 "E9" 29.27138 68.56184 65.94491 14.38942 23.27062 27.30988 
62 "E10" 72.45441 20.44251 100.0000 15.93547 10.29116 25.05762 
63 "E11" 37.22591 44.56092 67.28313 13.92622 16.42716 30.08573 
64 "E12" 0.00000 77.98276 26.84672 5.729392 14.31406 6.655295 
65 "E13" 31.32067 0.00000 75.14611 4.795458 3.064403 14.88457 
66 "F1" 67.00999 0.00000 72.42695 11.35976 6.248114 15.54032 
67 "F2" 63.89105 37.34188 19.16228 19.52018 15.40947 3.421961 
68 "F3" 66.21500 60.25788 31.64569 28.21582 30.88449 9.797216 
69 "F4" 0.00000 76.96345 71.82879 7.370603 15.05541 22.26235 
70 "F5" 85.89914 58.60533 43.76593 38.24045 34.28733 16.45247 
71 "F6" 15.61151 89.73831 84.68910 11.57026 21.33112 30.88575 
72 "F7" 55.97772 84.21149 17.47311 27.34812 37.95848 7.157112 
73 "F8" 25.17433 54.39078 31.93561 8.308763 15.07006 6.945986 
74 "F9" 71.67926 81.49538 100.0000 49.77584 55.08465 62.10949 
75 "F10" 22.16831 79.57580 8.390936 10.07472 19.87889 6.398405 
76 "F11" 75.92432 31.37713 0.00000 22.18144 14.42047 2.392573 
77 "F12" 36.84138 22.58640 77.46700 8.603414 7.718681 23.40722 
78 "F13" 84.77150 49.95193 82.39414 34.52084 28.37944 34.06883 
79 "G1" 19.25689 38.04685 55.33074 6.625450 9.002963 20.42968 
80 "G2" 88.42451 84.96986 12.16297 52.99102 56.87636 7.981453 
81 "G3" 20.39521 36.09216 6.169223 4.782897 7.313409 3.837133 
82 "G4" 87.85992 17.07942 11.12688 21.09458 11.66583 1.672321 
83 "G5" 15.90295 95.68780 20.94453 10.63236 21.83360 6.900919 
84 "G6" 63.56451 23.96887 36.54841 15.12654 9.344879 6.647889 
85 "G7" 47.85382 40.39216 85.38949 15.85792 16.14948 34.31837 
86 "G8" 58.98528 79.47509 43.06249 30.66653 40.56490 13.42404 
87 "G9" 66.93675 29.76272 76.60945 18.13193 13.30550 25.96826 
88 "G10" 51.78149 54.26566 13.13344 21.19781 25.40716 5.617464 
89 "G11" 21.54269 51.75555 94.75090 9.150756 12.62325 33.64280 
90 "G12" 16.24628 15.59319 89.16609 5.171416 4.612178 20.67278 
91 "G13" 48.97841 15.08965 16.31495 9.176182 5.931900 1.932793 
92 "H1" 84.54871 15.08202 46.01968 21.79647 11.97729 8.424745 
93 "H2" 9.939727 16.72236 52.28199 3.388248 3.295373 12.73860 
94 "H3" 7.933165 51.18181 15.48486 4.679160 10.54308 5.152289 
95 "H4" 34.57389 15.84802 52.90303 5.828993 4.726191 13.40510 
96 "H5" 84.46174 49.45296 21.40536 32.08164 26.04528 6.136506 
97 "H6" 51.17723 90.61418 62.26749 32.73869 45.45425 24.36063 
98 "H7" 84.70436 14.21530 80.30060 20.21855 12.10974 21.16061 
99 "H8" 18.40391 82.32700 49.68795 10.44099 21.18374 13.28526 
100 "H9" 85.61990 90.17014 60.73548 65.01913 71.01027 33.38721 
101 "H10" 56.88716 17.52651 57.68826 12.37023 7.793939 14.61549 
102 "H11" 87.31365 87.57153 36.41413 55.97069 60.53847 14.83857 
103 "H12" 13.61257 52.52613 73.54238 8.204856 12.50647 29.11898 
104 "H13" 48.90059 73.63699 81.40688 26.89814 34.80940 43.87106 
END_DATA
