selphy-cp730/selphy.ti2
CTI2   

DESCRIPTOR "Argyll Calibration Target chart information 2"
ORIGINATOR "Argyll printtarg"
CREATED "Sun Oct 12 22:51:31 2025"
TARGET_INSTRUMENT "GretagMacbeth SpectroScan"
COMP_GREY_STEPS "13"
APPROX_WHITE_POINT "95.106486 100.000000 108.844025"
TOTAL_INK_LIMIT "400.0"
COLOR_REP "iRGB"
PAPER_SIZE "101.6x152.4"
CHART_ID "99"
STEPS_IN_PASS "13"
PASSES_IN_STRIPS2 "8"
STRIP_INDEX_PATTERN "A-Z, A-Z"
PATCH_INDEX_PATTERN "0-9,@-9,@-9;1-999"
INDEX_ORDER "STRIP_THEN_PATCH"

NUMBER_OF_FIELDS 8
BEGIN_DATA_FORMAT
SAMPLE_ID SAMPLE_LOC RGB_R RGB_G RGB_B XYZ_X XYZ_Y XYZ_Z 
END_DATA_FORMAT

NUMBER_OF_SETS 104
BEGIN_DATA
1 "A1" 100.0000 100.0000 100.0000 95.10649 100.0000 108.8440 
2 "A2" 91.66705 91.66705 91.66705 78.24230 82.25888 89.51803 
3 "A3" 83.33257 83.33257 83.33257 63.28679 66.52569 72.37933 
4 "A4" 74.99962 74.99962 74.99962 50.17267 52.72963 57.35083 
5 "A5" 66.66667 66.66667 66.66667 38.82872 40.79580 44.35090 
6 "A6" 58.33371 58.33371 58.33371 29.17914 30.64445 33.29269 
7 "A7" 50.00076 50.00076 50.00076 21.14266 22.19007 24.08306 
8 "A8" 41.66629 41.66629 41.66629 14.63133 15.34015 16.62121 
9 "A9" 33.33333 33.33333 33.33333 9.548794 9.993329 10.79674 
10 "A10" 25.00038 25.00038 25.00038 5.787770 6.036733 6.486682 
11 "A11" 16.66743 16.66743 16.66743 3.225843 3.341587 3.550769 
12 "A12" 8.332952 8.332952 8.332952 1.717857 1.755186 1.822649 
13 "A13" 0.00000 0.00000 0.00000 1.000000 1.000000 1.000000 
14 "B1" 100.0000 0.00000 100.0000 59.70128 29.19948 97.04219 
15 "B2" 0.00000 100.0000 0.00000 36.40521 71.80052 12.80184 
16 "B3" 0.00000 0.00000 100.0000 18.87111 8.147314 95.12896 
17 "B4" 100.0000 100.0000 0.00000 77.23538 92.85269 14.71507 
18 "B5" 100.0000 0.00000 0.00000 41.83017 22.05217 2.913230 
19 "B6" 0.00000 100.0000 100.0000 54.27632 78.94783 106.9308 
20 "B7" 0.00000 35.51232 100.0000 22.53772 15.47952 96.35117 
21 "B8" 100.0000 0.00000 64.98970 48.61965 24.76753 38.67414 
22 "B9" 100.0000 51.24285 0.00000 49.82201 38.03361 5.577198 
23 "B10" 0.00000 100.0000 51.37560 40.46198 73.42297 34.16925 
24 "B11" 66.41794 100.0000 0.00000 52.68238 80.19308 13.56455 
25 "B12" 49.83139 0.00000 100.0000 27.54695 12.62061 95.53549 
26 "B13" 0.00000 65.40017 0.00000 14.63997 28.27612 5.546694 
27 "C1" 0.00000 0.00000 66.42100 8.125129 3.849602 38.52879 
28 "C2" 100.0000 34.00626 100.0000 63.05280 35.90159 98.15937 
29 "C3" 32.28351 0.00000 0.00000 4.472813 2.790594 1.162730 
30 "C4" 100.0000 100.0000 50.39445 81.12622 94.40878 35.20851 
31 "C5" 51.14061 100.0000 100.0000 63.45289 83.67930 107.3608 
32 "C6" 100.0000 0.00000 32.65888 43.38683 22.67474 11.11234 
33 "C7" 0.00000 56.30884 42.94957 13.57333 21.72633 18.81272 
34 "C8" 39.35454 33.73465 0.00000 9.538855 10.29527 2.344531 
35 "C9" 31.98444 100.0000 71.17418 48.12103 76.88024 56.72221 
36 "C10" 33.65835 0.00000 37.39071 6.844741 3.775221 12.03091 
37 "C11" 61.50301 51.32067 100.0000 40.62375 31.26305 98.44530 
38 "C12" 100.0000 31.24285 23.88800 45.47818 28.01667 8.232489 
39 "C13" 100.0000 64.37476 100.0000 72.87249 55.53822 101.4326 
40 "D1" 100.0000 27.64172 63.77813 50.54165 29.05353 37.94999 
41 "D2" 100.0000 80.66987 68.85176 71.32956 68.69751 50.81927 
42 "D3" 36.19135 64.96376 0.00000 18.83762 30.14280 5.685934 
43 "D4" 65.57717 0.00000 34.08255 18.52413 9.838916 10.69336 
44 "D5" 0.00000 35.46654 65.79385 11.63375 11.10298 38.96707 
45 "D6" 34.21073 100.0000 0.00000 40.31879 73.81837 12.98522 
46 "D7" 0.00000 32.51240 0.00000 4.055398 7.109941 2.018474 
47 "D8" 68.63966 100.0000 35.70459 55.78716 81.57744 23.47989 
48 "D9" 33.74228 73.00069 100.0000 40.09136 44.93699 101.1128 
49 "D10" 33.98337 31.09941 100.0000 25.52106 15.71674 96.23984 
50 "D11" 0.00000 65.16518 100.0000 32.40260 35.20652 99.63950 
51 "D12" 100.0000 73.26619 25.48562 60.33246 57.54078 13.74000 
52 "D13" 74.04288 68.04608 0.00000 36.62405 41.47142 6.935909 
53 "E1" 0.00000 31.76013 29.24849 5.155746 7.321335 8.519361 
54 "E2" 0.00000 0.00000 33.09377 2.599503 1.639700 9.424747 
55 "E3" 37.75235 74.13748 33.18685 25.44031 40.17023 15.70805 
56 "E4" 79.92218 38.35966 52.03174 34.07759 23.96520 25.55116 
57 "E5" 65.80606 0.00000 0.00000 16.94679 9.222216 1.747239 
58 "E6" 100.0000 54.84550 59.34997 56.65267 42.80098 35.27736 
59 "E7" 29.84360 100.0000 35.39635 41.20227 74.06128 22.62273 
60 "E8" 71.32525 100.0000 70.78508 63.68425 84.91638 56.92389 
61 "E9" 29.27138 68.56184 65.94491 26.00343 35.55849 43.11832 
62 "E10" 72.45441 20.44251 100.0000 39.84399 20.77375 96.46163 
63 "E11" 37.22591 44.56092 67.28313 18.91314 18.16874 41.80814 
64 "E12" 0.00000 77.98276 26.84672 22.23495 41.78911 13.24369 
65 "E13" 31.32067 0.00000 75.14611 13.64279 6.433880 50.55080 
66 "F1" 67.00999 0.00000 72.42695 26.23805 13.01375 47.27275 
67 "F2" 63.89105 37.34188 19.16228 20.55614 17.06274 5.933457 
68 "F3" 66.21500 60.25788 31.64569 30.01142 32.68653 13.23881 
69 "F4" 0.00000 76.96345 71.82879 29.08097 43.58882 52.19596 
70 "F5" 85.89914 58.60533 43.76593 43.52043 38.48681 21.06246 
71 "F6" 15.61151 89.73831 84.68910 41.82107 61.73235 74.88040 
72 "F7" 55.97772 84.21149 17.47311 36.62509 54.92441 11.94724 
73 "F8" 25.17433 54.39078 31.93561 13.69013 20.87311 11.96161 
74 "F9" 71.67926 81.49538 100.0000 60.44050 62.65655 103.4614 
75 "F10" 22.16831 79.57580 8.390936 23.90693 44.14707 8.844070 
76 "F11" 75.92432 31.37713 0.00000 25.76853 17.98698 2.974469 
77 "F12" 36.84138 22.58640 77.46700 17.08240 10.32432 54.58704 
78 "F13" 84.77150 49.95193 82.39414 48.17908 35.21525 65.57036 
79 "G1" 19.25689 38.04685 55.33074 11.26004 12.02267 27.57834 
80 "G2" 88.42451 84.96986 12.16297 56.62103 65.98656 11.89974 
81 "G3" 20.39521 36.09216 6.169223 6.285303 9.342741 2.807161 
82 "G4" 87.85992 17.07942 11.12688 32.53556 18.53441 3.834948 
83 "G5" 15.90295 95.68780 20.94453 34.56410 65.76835 15.11896 
84 "G6" 63.56451 23.96887 36.54841 19.39347 12.71789 12.59474 
85 "G7" 47.85382 40.39216 85.38949 26.24779 19.69918 68.79076 
86 "G8" 58.98528 79.47509 43.06249 37.36971 50.69458 23.23170 
87 "G9" 66.93675 29.76272 76.60945 29.90440 18.55735 54.20309 
88 "G10" 51.78149 54.26566 13.13344 19.75844 24.07379 5.926644 
89 "G11" 21.54269 51.75555 94.75090 26.53391 24.45642 87.07406 
90 "G12" 16.24628 15.59319 89.16609 16.44443 8.472686 73.86476 
91 "G13" 48.97841 15.08965 16.31495 10.46626 6.874849 3.768147 
92 "H1" 84.54871 15.08202 46.01968 32.82059 18.07692 19.39431 
93 "H2" 9.939727 16.72236 52.28199 6.461588 4.579039 23.49346 
94 "H3" 7.933165 51.18181 15.48486 9.632044 17.23806 5.622644 
95 "H4" 34.57389 15.84802 52.90303 10.08818 6.321450 24.21219 
96 "H5" 84.46174 49.45296 21.40536 36.92869 30.42958 8.316144 
97 "H6" 51.17723 90.61418 62.26749 44.67946 64.82390 43.40344 
98 "H7" 84.70436 14.21530 80.30060 40.55105 21.07205 59.84234 
99 "H8" 18.40391 82.32700 49.68795 28.73327 48.70378 28.53199 
100 "H9" 85.61990 90.17014 60.73548 63.56886 74.13638 42.47730 
101 "H10" 56.88716 17.52651 57.68826 18.71166 10.88989 29.35481 
102 "H11" 87.31365 87.57153 36.41413 59.17970 69.66700 21.41259 
103 "H12" 13.61257 52.52613 73.54238 19.04651 21.78604 50.91628 
104 "H13" 48.90059 73.63699 81.40688 38.30853 45.29176 66.41715 
END_DATA
