selphy-cp730/selphy.ti1
CTI1   

DESCRIPTOR "Argyll Calibration Target chart information 1"
ORIGINATOR "Argyll targen"
CREATED "Sun Oct 12 22:51:29 2025"
APPROX_WHITE_POINT "95.106486 100.000000 108.844025"
COLOR_REP "iRGB"
TOTAL_INK_LIMIT "400.0"
COMP_GREY_STEPS "13"
OFPS_PATCHES "91"

NUMBER_OF_FIELDS 7
BEGIN_DATA_FORMAT
SAMPLE_ID RGB_R RGB_G RGB_B XYZ_X XYZ_Y XYZ_Z 
END_DATA_FORMAT

NUMBER_OF_SETS 104
BEGIN_DATA
1 100.0000 100.0000 100.0000 95.10649 100.0000 108.8440 
2 91.66667 91.66667 91.66667 78.24230 82.25888 89.51803 
3 83.33333 83.33333 83.33333 63.28679 66.52569 72.37933 
4 75.00000 75.00000 75.00000 50.17267 52.72963 57.35083 
5 66.66667 66.66667 66.66667 38.82872 40.79580 44.35090 
6 58.33333 58.33333 58.33333 29.17914 30.64445 33.29269 
7 50.00000 50.00000 50.00000 21.14266 22.19007 24.08306 
8 41.66667 41.66667 41.66667 14.63133 15.34015 16.62121 
9 33.33333 33.33333 33.33333 9.548794 9.993329 10.79674 
10 25.00000 25.00000 25.00000 5.787770 6.036733 6.486682 
11 16.66667 16.66667 16.66667 3.225843 3.341587 3.550769 
12 8.333333 8.333333 8.333333 1.717857 1.755186 1.822649 
13 0.00000 0.00000 0.00000 1.000000 1.000000 1.000000 
14 100.0000 0.00000 100.0000 59.70128 29.19948 97.04219 
15 0.00000 100.0000 0.00000 36.40521 71.80052 12.80184 
16 0.00000 0.00000 100.0000 18.87111 8.147314 95.12896 
17 100.0000 100.0000 0.00000 77.23538 92.85269 14.71507 
18 100.0000 0.00000 0.00000 41.83017 22.05217 2.913230 
19 0.00000 100.0000 100.0000 54.27632 78.94783 106.9308 
20 0.00000 35.51269 100.0000 22.53772 15.47952 96.35117 
21 100.0000 0.00000 64.98900 48.61965 24.76753 38.67414 
22 100.0000 51.24277 0.00000 49.82201 38.03361 5.577198 
23 0.00000 100.0000 51.37627 40.46198 73.42297 34.16925 
24 66.41754 100.0000 0.00000 52.68238 80.19308 13.56455 
25 49.83163 0.00000 100.0000 27.54695 12.62061 95.53549 
26 0.00000 65.40007 0.00000 14.63997 28.27612 5.546694 
27 0.00000 0.00000 66.42055 8.125129 3.849602 38.52879 
28 100.0000 34.00561 100.0000 63.05280 35.90159 98.15937 
29 32.28281 0.00000 0.00000 4.472813 2.790594 1.162730 
30 100.0000 100.0000 50.39514 81.12622 94.40878 35.20851 
31 51.14051 100.0000 100.0000 63.45289 83.67930 107.3608 
32 100.0000 0.00000 32.65961 43.38683 22.67474 11.11234 
33 0.00000 56.30852 42.94990 13.57333 21.72633 18.81272 
34 39.35471 33.73477 0.00000 9.538855 10.29527 2.344531 
35 31.98515 100.0000 71.17484 48.12103 76.88024 56.72221 
36 33.65869 0.00000 37.39007 6.844741 3.775221 12.03091 
37 61.50354 51.32080 100.0000 40.62375 31.26305 98.44530 
38 100.0000 31.24317 23.88787 45.47818 28.01667 8.232489 
39 100.0000 64.37447 100.0000 72.87249 55.53822 101.4326 
40 100.0000 27.64138 63.77781 50.54165 29.05353 37.94999 
41 100.0000 80.66950 68.85119 71.32956 68.69751 50.81927 
42 36.19095 64.96383 0.00000 18.83762 30.14280 5.685934 
43 65.57744 0.00000 34.08203 18.52413 9.838916 10.69336 
44 0.00000 35.46709 65.79336 11.63375 11.10298 38.96707 
45 34.21149 100.0000 0.00000 40.31879 73.81837 12.98522 
46 0.00000 32.51188 0.00000 4.055398 7.109941 2.018474 
47 68.63965 100.0000 35.70388 55.78716 81.57744 23.47989 
48 33.74238 73.00134 100.0000 40.09136 44.93699 101.1128 
49 33.98382 31.09960 100.0000 25.52106 15.71674 96.23984 
50 0.00000 65.16460 100.0000 32.40260 35.20652 99.63950 
51 100.0000 73.26590 25.48594 60.33246 57.54078 13.74000 
52 74.04247 68.04534 0.00000 36.62405 41.47142 6.935909 
53 0.00000 31.76055 29.24784 5.155746 7.321335 8.519361 
54 0.00000 0.00000 33.09371 2.599503 1.639700 9.424747 
55 37.75284 74.13675 33.18707 25.44031 40.17023 15.70805 
56 79.92209 38.35926 52.03113 34.07759 23.96520 25.55116 
57 65.80568 0.00000 0.00000 16.94679 9.222216 1.747239 
58 100.0000 54.84549 59.35068 56.65267 42.80098 35.27736 
59 29.84349 100.0000 35.39699 41.20227 74.06128 22.62273 
60 71.32575 100.0000 70.78483 63.68425 84.91638 56.92389 
61 29.27163 68.56162 65.94536 26.00343 35.55849 43.11832 
62 72.45486 20.44200 100.0000 39.84399 20.77375 96.46163 
63 37.22615 44.56107 67.28256 18.91314 18.16874 41.80814 
64 0.00000 77.98278 26.84610 22.23495 41.78911 13.24369 
65 31.32016 0.00000 75.14537 13.64279 6.433880 50.55080 
66 67.00937 0.00000 72.42656 26.23805 13.01375 47.27275 
67 63.89124 37.34257 19.16302 20.55614 17.06274 5.933457 
68 66.21426 60.25813 31.64611 30.01142 32.68653 13.23881 
69 0.00000 76.96354 71.82897 29.08097 43.58882 52.19596 
70 85.89964 58.60532 43.76559 43.52043 38.48681 21.06246 
71 15.61102 89.73860 84.68913 41.82107 61.73235 74.88040 
72 55.97727 84.21134 17.47357 36.62509 54.92441 11.94724 
73 25.17391 54.39103 31.93491 13.69013 20.87311 11.96161 
74 71.67875 81.49469 100.0000 60.44050 62.65655 103.4614 
75 22.16841 79.57604 8.391308 23.90693 44.14707 8.844070 
76 75.92480 31.37641 0.00000 25.76853 17.98698 2.974469 
77 36.84138 22.58658 77.46741 17.08240 10.32432 54.58704 
78 84.77103 49.95141 82.39476 48.17908 35.21525 65.57036 
79 19.25619 38.04710 55.33066 11.26004 12.02267 27.57834 
80 88.42506 84.97025 12.16342 56.62103 65.98656 11.89974 
81 20.39484 36.09237 6.169529 6.285303 9.342741 2.807161 
82 87.86012 17.07939 11.12629 32.53556 18.53441 3.834948 
83 15.90345 95.68752 20.94462 34.56410 65.76835 15.11896 
84 63.56398 23.96852 36.54904 19.39347 12.71789 12.59474 
85 47.85310 40.39158 85.38876 26.24779 19.69918 68.79076 
86 58.98568 79.47561 43.06211 37.36971 50.69458 23.23170 
87 66.93680 29.76212 76.60878 29.90440 18.55735 54.20309 
88 51.78177 54.26539 13.13288 19.75844 24.07379 5.926644 
89 21.54309 51.75591 94.75149 26.53391 24.45642 87.07406 
90 16.24661 15.59301 89.16569 16.44443 8.472686 73.86476 
91 48.97776 15.08950 16.31558 10.46626 6.874849 3.768147 
92 84.54839 15.08238 46.02010 32.82059 18.07692 19.39431 
93 9.939899 16.72287 52.28248 6.461588 4.579039 23.49346 
94 7.932476 51.18173 15.48439 9.632044 17.23806 5.622644 
95 34.57462 15.84866 52.90275 10.08818 6.321450 24.21219 
96 84.46188 49.45252 21.40499 36.92869 30.42958 8.316144 
97 51.17795 90.61481 62.26687 44.67946 64.82390 43.40344 
98 84.70486 14.21518 80.30027 40.55105 21.07205 59.84234 
99 18.40366 82.32746 49.68834 28.73327 48.70378 28.53199 
100 85.61931 90.17007 60.73530 63.56886 74.13638 42.47730 
101 56.88687 17.52697 57.68790 18.71166 10.88989 29.35481 
102 87.31387 87.57177 36.41349 59.17970 69.66700 21.41259 
103 13.61267 52.52630 73.54214 19.04651 21.78604 50.91628 
104 48.90038 73.63669 81.40668 38.30853 45.29176 66.41715 
END_DATA
CTI1   

DESCRIPTOR "Argyll Calibration Target chart information 1"
ORIGINATOR "Argyll targen"
DENSITY_EXTREME_VALUES "8"
CREATED "October 12, 2025"

NUMBER_OF_FIELDS 7
BEGIN_DATA_FORMAT
INDEX RGB_R RGB_G RGB_B XYZ_X XYZ_Y XYZ_Z 
END_DATA_FORMAT

NUMBER_OF_SETS 8
BEGIN_DATA
0 100.0000 100.0000 100.0000 95.10649 100.0000 108.8440 
1 0.00000 47.36069 100.0000 25.61297 21.62916 97.37627 
2 100.0000 0.00000 79.35138 52.42580 26.28975 58.72152 
3 0.00000 0.00000 58.99714 6.485834 3.193987 29.89445 
4 100.0000 66.65930 0.00000 56.05879 50.50543 7.656144 
5 0.00000 35.60114 0.00000 4.685619 8.370208 2.228550 
6 84.44436 0.00000 0.00000 28.84279 15.35583 2.304665 
7 0.00000 0.00000 0.00000 1.000000 1.000000 1.000000 
END_DATA
CTI1   

DESCRIPTOR "Argyll Calibration Target chart information 1"
ORIGINATOR "Argyll targen"
DEVICE_COMBINATION_VALUES "9"
CREATED "October 12, 2025"

NUMBER_OF_FIELDS 7
BEGIN_DATA_FORMAT
INDEX RGB_R RGB_G RGB_B XYZ_X XYZ_Y XYZ_Z 
END_DATA_FORMAT

NUMBER_OF_SETS 9
BEGIN_DATA
0 100.0000 100.0000 100.0000 95.10649 100.0000 108.8440 
1 0.00000 100.0000 100.0000 54.27632 78.94783 106.9308 
2 100.0000 0.00000 100.0000 59.70128 29.19948 97.04219 
3 0.00000 0.00000 100.0000 18.87111 8.147314 95.12896 
4 100.0000 100.0000 0.00000 77.23538 92.85269 14.71507 
5 0.00000 100.0000 0.00000 36.40521 71.80052 12.80184 
6 100.0000 0.00000 0.00000 41.83017 22.05217 2.913230 
7 0.00000 0.00000 0.00000 1.000000 1.000000 1.000000 
8 50.00000 50.00000 50.00000 21.14266 22.19007 24.08306 
END_DATA
