selphy-cp730/selphy.cal
CAL    

DESCRIPTOR "Argyll Device Calibration Curves"
ORIGINATOR "Argyll printcal"
CREATED "Sat Oct 18 00:20:28 2025"
DEVICE_CLASS "OUTPUT"
COLOR_REP "iRGB"
MODEL "cp730"
DESCRIPTION "108 patches Selphy"

NUMBER_OF_FIELDS 4
BEGIN_DATA_FORMAT
RGB_I RGB_R RGB_G RGB_B 
END_DATA_FORMAT

NUMBER_OF_SETS 256
BEGIN_DATA
0.00000 0.00000 0.00000 0.00000 
0.00392157 0.00394398 0.00610873 0.00679451 
0.00784314 0.00788736 0.0122131 0.0135545 
0.0117647 0.0118304 0.0183113 0.0202808 
0.0156863 0.0157730 0.0244019 0.0269736 
0.0196078 0.0197153 0.0304830 0.0336335 
0.0235294 0.0236574 0.0365529 0.0402611 
0.0274510 0.0275993 0.0426102 0.0468567 
0.0313725 0.0315412 0.0486532 0.0534206 
0.0352941 0.0354830 0.0546802 0.0599534 
0.0392157 0.0394249 0.0606899 0.0664553 
0.0431373 0.0433670 0.0666807 0.0729271 
0.0470588 0.0473092 0.0726512 0.0793689 
0.0509804 0.0512517 0.0786002 0.0857809 
0.0549020 0.0551946 0.0845260 0.0921638 
0.0588235 0.0591379 0.0904278 0.0985178 
0.0627451 0.0630816 0.0963041 0.104843 
0.0666667 0.0670260 0.102154 0.111141 
0.0705882 0.0709709 0.107976 0.117410 
0.0745098 0.0749165 0.113769 0.123652 
0.0784314 0.0788629 0.119532 0.129866 
0.0823529 0.0828102 0.125265 0.136054 
0.0862745 0.0867583 0.130966 0.142215 
0.0901961 0.0907074 0.136634 0.148350 
0.0941176 0.0946576 0.142270 0.154458 
0.0980392 0.0986089 0.147871 0.160541 
0.101961 0.102561 0.153438 0.166598 
0.105882 0.106515 0.158969 0.172629 
0.109804 0.110470 0.164465 0.178636 
0.113725 0.114427 0.169924 0.184618 
0.117647 0.118384 0.175346 0.190575 
0.121569 0.122344 0.180731 0.196507 
0.125490 0.126305 0.186079 0.202416 
0.129412 0.130267 0.191388 0.208300 
0.133333 0.134232 0.196660 0.214161 
0.137255 0.138198 0.201892 0.219998 
0.141176 0.142166 0.207087 0.225812 
0.145098 0.146136 0.212242 0.231602 
0.149020 0.150108 0.217358 0.237370 
0.152941 0.154082 0.222435 0.243114 
0.156863 0.158058 0.227473 0.248836 
0.160784 0.162036 0.232472 0.254535 
0.164706 0.166017 0.237432 0.260212 
0.168627 0.170000 0.242353 0.265867 
0.172549 0.173985 0.247234 0.271499 
0.176471 0.177973 0.252077 0.277110 
0.180392 0.181964 0.256881 0.282698 
0.184314 0.185956 0.261646 0.288265 
0.188235 0.189952 0.266372 0.293810 
0.192157 0.193951 0.271061 0.299334 
0.196078 0.197952 0.275711 0.304836 
0.200000 0.201956 0.280323 0.310317 
0.203922 0.205963 0.284897 0.315777 
0.207843 0.209973 0.289434 0.321215 
0.211765 0.213986 0.293934 0.326633 
0.215686 0.218002 0.298397 0.332030 
0.219608 0.222022 0.302823 0.337405 
0.223529 0.226044 0.307213 0.342760 
0.227451 0.230070 0.311566 0.348094 
0.231373 0.234100 0.315884 0.353408 
0.235294 0.238133 0.320167 0.358701 
0.239216 0.242169 0.324414 0.363973 
0.243137 0.246209 0.328627 0.369225 
0.247059 0.250253 0.332805 0.374456 
0.250980 0.254300 0.336949 0.379667 
0.254902 0.258351 0.341059 0.384858 
0.258824 0.262406 0.345136 0.390028 
0.262745 0.266465 0.349182 0.395178 
0.266667 0.270528 0.353197 0.400307 
0.270588 0.274595 0.357183 0.405416 
0.274510 0.278666 0.361142 0.410505 
0.278431 0.282741 0.365074 0.415574 
0.282353 0.286821 0.368981 0.420622 
0.286275 0.290904 0.372864 0.425650 
0.290196 0.294992 0.376723 0.430658 
0.294118 0.299085 0.380560 0.435645 
0.298039 0.303182 0.384376 0.440612 
0.301961 0.307283 0.388171 0.445559 
0.305882 0.311389 0.391947 0.450486 
0.309804 0.315499 0.395704 0.455392 
0.313725 0.319615 0.399443 0.460278 
0.317647 0.323734 0.403164 0.465144 
0.321569 0.327859 0.406870 0.469989 
0.325490 0.331989 0.410559 0.474814 
0.329412 0.336123 0.414233 0.479618 
0.333333 0.340262 0.417893 0.484402 
0.337255 0.344407 0.421539 0.489165 
0.341176 0.348556 0.425172 0.493908 
0.345098 0.352710 0.428792 0.498630 
0.349020 0.356870 0.432400 0.503331 
0.352941 0.361034 0.435996 0.508012 
0.356863 0.365204 0.439581 0.512672 
0.360784 0.369379 0.443156 0.517311 
0.364706 0.373559 0.446721 0.521929 
0.368627 0.377745 0.450277 0.526525 
0.372549 0.381936 0.453823 0.531099 
0.376471 0.386132 0.457361 0.535652 
0.380392 0.390333 0.460891 0.540183 
0.384314 0.394540 0.464413 0.544691 
0.388235 0.398753 0.467928 0.549178 
0.392157 0.402970 0.471436 0.553642 
0.396078 0.407194 0.474938 0.558084 
0.400000 0.411423 0.478434 0.562503 
0.403922 0.415657 0.481924 0.566899 
0.407843 0.419896 0.485409 0.571273 
0.411765 0.424141 0.488890 0.575624 
0.415686 0.428392 0.492366 0.579952 
0.419608 0.432648 0.495838 0.584257 
0.423529 0.436910 0.499306 0.588538 
0.427451 0.441177 0.502772 0.592797 
0.431373 0.445450 0.506234 0.597033 
0.435294 0.449728 0.509694 0.601246 
0.439216 0.454011 0.513151 0.605435 
0.443137 0.458300 0.516607 0.609601 
0.447059 0.462594 0.520061 0.613744 
0.450980 0.466893 0.523514 0.617863 
0.454902 0.471197 0.526966 0.621960 
0.458824 0.475507 0.530418 0.626033 
0.462745 0.479822 0.533870 0.630083 
0.466667 0.484142 0.537322 0.634109 
0.470588 0.488467 0.540774 0.638113 
0.474510 0.492797 0.544227 0.642093 
0.478431 0.497131 0.547682 0.646050 
0.482353 0.501470 0.551138 0.649984 
0.486275 0.505814 0.554595 0.653894 
0.490196 0.510163 0.558055 0.657782 
0.494118 0.514515 0.561518 0.661646 
0.498039 0.518872 0.564983 0.665488 
0.501961 0.523233 0.568451 0.669307 
0.505882 0.527597 0.571923 0.673102 
0.509804 0.531965 0.575399 0.676875 
0.513725 0.536335 0.578878 0.680625 
0.517647 0.540708 0.582363 0.684353 
0.521569 0.545083 0.585852 0.688057 
0.525490 0.549460 0.589346 0.691740 
0.529412 0.553838 0.592845 0.695399 
0.533333 0.558218 0.596350 0.699036 
0.537255 0.562599 0.599861 0.702651 
0.541176 0.566980 0.603379 0.706244 
0.545098 0.571362 0.606903 0.709814 
0.549020 0.575743 0.610435 0.713362 
0.552941 0.580124 0.613974 0.716888 
0.556863 0.584504 0.617520 0.720392 
0.560784 0.588883 0.621075 0.723875 
0.564706 0.593260 0.624638 0.727335 
0.568627 0.597635 0.628210 0.730774 
0.572549 0.602008 0.631790 0.734192 
0.576471 0.606378 0.635381 0.737587 
0.580392 0.610745 0.638980 0.740962 
0.584314 0.615109 0.642590 0.744315 
0.588235 0.619469 0.646211 0.747647 
0.592157 0.623825 0.649841 0.750958 
0.596078 0.628176 0.653482 0.754247 
0.600000 0.632523 0.657132 0.757516 
0.603922 0.636864 0.660792 0.760764 
0.607843 0.641199 0.664461 0.763992 
0.611765 0.645529 0.668138 0.767198 
0.615686 0.649852 0.671824 0.770385 
0.619608 0.654168 0.675518 0.773550 
0.623529 0.658477 0.679220 0.776696 
0.627451 0.662779 0.682928 0.779821 
0.631373 0.667072 0.686644 0.782927 
0.635294 0.671358 0.690365 0.786012 
0.639216 0.675635 0.694093 0.789078 
0.643137 0.679903 0.697826 0.792123 
0.647059 0.684161 0.701565 0.795149 
0.650980 0.688410 0.705308 0.798156 
0.654902 0.692649 0.709055 0.801143 
0.658824 0.696878 0.712806 0.804111 
0.662745 0.701096 0.716560 0.807059 
0.666667 0.705303 0.720316 0.809989 
0.670588 0.709498 0.724075 0.812899 
0.674510 0.713682 0.727836 0.815791 
0.678431 0.717854 0.731598 0.818664 
0.682353 0.722014 0.735360 0.821518 
0.686275 0.726161 0.739122 0.824353 
0.690196 0.730294 0.742884 0.827170 
0.694118 0.734415 0.746645 0.829969 
0.698039 0.738522 0.750405 0.832749 
0.701961 0.742615 0.754162 0.835512 
0.705882 0.746694 0.757917 0.838256 
0.709804 0.750759 0.761669 0.840982 
0.713725 0.754809 0.765417 0.843691 
0.717647 0.758844 0.769160 0.846382 
0.721569 0.762864 0.772899 0.849055 
0.725490 0.766868 0.776632 0.851711 
0.729412 0.770857 0.780360 0.854349 
0.733333 0.774829 0.784081 0.856970 
0.737255 0.778786 0.787795 0.859574 
0.741176 0.782726 0.791501 0.862161 
0.745098 0.786649 0.795199 0.864731 
0.749020 0.790555 0.798888 0.867284 
0.752941 0.794444 0.802569 0.869820 
0.756863 0.798316 0.806239 0.872339 
0.760784 0.802171 0.809900 0.874842 
0.764706 0.806007 0.813549 0.877329 
0.768627 0.809826 0.817187 0.879799 
0.772549 0.813627 0.820814 0.882253 
0.776471 0.817409 0.824428 0.884691 
0.780392 0.821173 0.828030 0.887112 
0.784314 0.824919 0.831618 0.889518 
0.788235 0.828646 0.835193 0.891908 
0.792157 0.832353 0.838754 0.894282 
0.796078 0.836042 0.842300 0.896641 
0.800000 0.839712 0.845831 0.898984 
0.803922 0.843362 0.849347 0.901311 
0.807843 0.846993 0.852847 0.903623 
0.811765 0.850605 0.856331 0.905920 
0.815686 0.854197 0.859799 0.908202 
0.819608 0.857769 0.863250 0.910468 
0.823529 0.861321 0.866683 0.912720 
0.827451 0.864854 0.870099 0.914957 
0.831373 0.868366 0.873497 0.917179 
0.835294 0.871858 0.876877 0.919386 
0.839216 0.875330 0.880239 0.921579 
0.843137 0.878782 0.883581 0.923757 
0.847059 0.882214 0.886905 0.925921 
0.850980 0.885625 0.890209 0.928070 
0.854902 0.889015 0.893494 0.930206 
0.858824 0.892386 0.896759 0.932327 
0.862745 0.895735 0.900004 0.934434 
0.866667 0.899064 0.903229 0.936527 
0.870588 0.902373 0.906433 0.938606 
0.874510 0.905661 0.909617 0.940672 
0.878431 0.908928 0.912779 0.942723 
0.882353 0.912175 0.915921 0.944762 
0.886275 0.915401 0.919042 0.946786 
0.890196 0.918606 0.922142 0.948798 
0.894118 0.921790 0.925220 0.950795 
0.898039 0.924954 0.928276 0.952780 
0.901961 0.928097 0.931311 0.954752 
0.905882 0.931219 0.934324 0.956710 
0.909804 0.934321 0.937316 0.958655 
0.913725 0.937402 0.940285 0.960588 
0.917647 0.940462 0.943232 0.962508 
0.921569 0.943502 0.946158 0.964415 
0.925490 0.946520 0.949061 0.966309 
0.929412 0.949519 0.951942 0.968191 
0.933333 0.952496 0.954801 0.970060 
0.937255 0.955453 0.957637 0.971917 
0.941176 0.958390 0.960452 0.973761 
0.945098 0.961306 0.963244 0.975593 
0.949020 0.964201 0.966014 0.977413 
0.952941 0.967076 0.968761 0.979221 
0.956863 0.969931 0.971486 0.981017 
0.960784 0.972765 0.974189 0.982801 
0.964706 0.975579 0.976870 0.984573 
0.968627 0.978373 0.979529 0.986333 
0.972549 0.981146 0.982165 0.988081 
0.976471 0.983900 0.984779 0.989818 
0.980392 0.986633 0.987371 0.991543 
0.984314 0.989346 0.989941 0.993256 
0.988235 0.992040 0.992489 0.994958 
0.992157 0.994713 0.995014 0.996649 
0.996078 0.997366 0.997518 0.998328 
1.000000 1.000000 1.000000 1.000000 
END_DATA
CAL    

DESCRIPTOR "Argyll Calibration Aim Target Definition File"
ORIGINATOR "Argyll printcal"
CREATED "Sat Oct 18 00:20:28 2025"
COLOR_REP "iRGB"

NUMBER_OF_FIELDS 5
BEGIN_DATA_FORMAT
PARAMTYPE RGB_I RGB_R RGB_G RGB_B 
END_DATA_FORMAT

NUMBER_OF_SETS 3
BEGIN_DATA
DEVMAX_USED 0.00000 0.00000 0.00000 0.00000 
DELMAX_AIM 0.00000 77.63294 92.02628 91.96239 
DELMIN_AIM 0.00000 0.00000 0.00000 0.00000 
END_DATA
CAL    

DESCRIPTOR "Argyll Output Calibration Expected Absolute DE Response"
ORIGINATOR "Argyll printcal"
CREATED "Sat Oct 18 00:20:28 202"
DEVICE_CLASS "OUTPUT"
COLOR_REP "iRGB"

NUMBER_OF_FIELDS 4
BEGIN_DATA_FORMAT
RGB_I_DE RGB_R_DE RGB_G_DE RGB_B_DE 
END_DATA_FORMAT

NUMBER_OF_SETS 256
BEGIN_DATA
0.00000 77.63294 92.02628 91.96239 
0.00392157 77.34804 91.64923 91.30980 
0.00784314 77.06324 91.27251 90.66067 
0.0117647 76.77854 90.89614 90.01492 
0.0156863 76.49392 90.52011 89.37256 
0.0196078 76.20938 90.14444 88.73352 
0.0235294 75.92492 89.76914 88.09778 
0.0274510 75.64052 89.39423 87.46529 
0.0313725 75.35618 89.01969 86.83605 
0.0352941 75.07189 88.64555 86.21001 
0.0392157 74.78764 88.27181 85.58715 
0.0431373 74.50343 87.89848 84.96739 
0.0470588 74.21925 87.52555 84.35076 
0.0509804 73.93509 87.15303 83.73722 
0.0549020 73.65094 86.78094 83.12671 
0.0588235 73.36680 86.40925 82.51924 
0.0627451 73.08267 86.03799 81.91474 
0.0666667 72.79851 85.66717 81.31322 
0.0705882 72.51435 85.29676 80.71464 
0.0745098 72.23017 84.92678 80.11897 
0.0784314 71.94595 84.55723 79.52620 
0.0823529 71.66171 84.18811 78.93629 
0.0862745 71.37741 83.81942 78.34922 
0.0901961 71.09307 83.45116 77.76497 
0.0941176 70.80866 83.08335 77.18352 
0.0980392 70.52419 82.71595 76.60483 
0.101961 70.23964 82.34898 76.02889 
0.105882 69.95501 81.98245 75.45570 
0.109804 69.67030 81.61635 74.88521 
0.113725 69.38548 81.25068 74.31740 
0.117647 69.10056 80.88544 73.75227 
0.121569 68.81553 80.52062 73.18977 
0.125490 68.53039 80.15623 72.62991 
0.129412 68.24511 79.79227 72.07267 
0.133333 67.95970 79.42874 71.51800 
0.137255 67.67414 79.06564 70.96593 
0.141176 67.38844 78.70296 70.41640 
0.145098 67.10257 78.34069 69.86942 
0.149020 66.81655 77.97886 69.32496 
0.152941 66.53035 77.61745 68.78300 
0.156863 66.24396 77.25646 68.24354 
0.160784 65.95739 76.89589 67.70655 
0.164706 65.67062 76.53575 67.17202 
0.168627 65.38364 76.17602 66.63995 
0.172549 65.09645 75.81671 66.11031 
0.176471 64.80903 75.45782 65.58307 
0.180392 64.52138 75.09934 65.05826 
0.184314 64.23350 74.74129 64.53584 
0.188235 63.94537 74.38365 64.01579 
0.192157 63.65698 74.02642 63.49811 
0.196078 63.36833 73.66961 62.98278 
0.200000 63.07940 73.31322 62.46980 
0.203922 62.79020 72.95724 61.95916 
0.207843 62.50071 72.60168 61.45084 
0.211765 62.21091 72.24653 60.94483 
0.215686 61.92082 71.89179 60.44112 
0.219608 61.63040 71.53746 59.93970 
0.223529 61.33967 71.18355 59.44057 
0.227451 61.04859 70.83006 58.94371 
0.231373 60.75718 70.47698 58.44912 
0.235294 60.46541 70.12431 57.95678 
0.239216 60.17329 69.77206 57.46668 
0.243137 59.88080 69.42022 56.97884 
0.247059 59.58793 69.06880 56.49322 
0.250980 59.29467 68.71780 56.00982 
0.254902 59.00102 68.36721 55.52865 
0.258824 58.70696 68.01703 55.04969 
0.262745 58.41249 67.66723 54.57294 
0.266667 58.11760 67.31777 54.09839 
0.270588 57.82227 66.96862 53.62602 
0.274510 57.52649 66.61976 53.15585 
0.278431 57.23028 66.27115 52.68787 
0.282353 56.93359 65.92277 52.22205 
0.286275 56.63643 65.57460 51.75842 
0.290196 56.33880 65.22660 51.29696 
0.294118 56.04067 64.87877 50.83766 
0.298039 55.74205 64.53106 50.38053 
0.301961 55.44291 64.18347 49.92554 
0.305882 55.14326 63.83597 49.47273 
0.309804 54.84308 63.48854 49.02206 
0.313725 54.54236 63.14116 48.57354 
0.317647 54.24109 62.79380 48.12717 
0.321569 53.93926 62.44646 47.68295 
0.325490 53.63687 62.09911 47.24086 
0.329412 53.33390 61.75175 46.80093 
0.333333 53.03034 61.40433 46.36313 
0.337255 52.72619 61.05685 45.92746 
0.341176 52.42142 60.70929 45.49393 
0.345098 52.11604 60.36165 45.06255 
0.349020 51.81003 60.01389 44.63329 
0.352941 51.50339 59.66600 44.20617 
0.356863 51.19610 59.31798 43.78119 
0.360784 50.88816 58.96980 43.35837 
0.364706 50.57954 58.62144 42.93771 
0.368627 50.27026 58.27289 42.51922 
0.372549 49.96028 57.92415 42.10291 
0.376471 49.64962 57.57518 41.68880 
0.380392 49.33825 57.22597 41.27687 
0.384314 49.02617 56.87653 40.86715 
0.388235 48.71336 56.52681 40.45964 
0.392157 48.39982 56.17682 40.05434 
0.396078 48.08554 55.82654 39.65125 
0.400000 47.77051 55.47595 39.25038 
0.403922 47.45472 55.12503 38.85173 
0.407843 47.13817 54.77378 38.45531 
0.411765 46.82084 54.42218 38.06111 
0.415686 46.50271 54.07021 37.66913 
0.419608 46.18380 53.71786 37.27939 
0.423529 45.86409 53.36512 36.89187 
0.427451 45.54356 53.01197 36.50658 
0.431373 45.22222 52.65839 36.12351 
0.435294 44.90006 52.30437 35.74267 
0.439216 44.57706 51.94990 35.36404 
0.443137 44.25323 51.59496 34.98764 
0.447059 43.92854 51.23953 34.61346 
0.450980 43.60301 50.88360 34.24148 
0.454902 43.27662 50.52716 33.87173 
0.458824 42.94937 50.17019 33.50417 
0.462745 42.62125 49.81266 33.13881 
0.466667 42.29226 49.45458 32.77565 
0.470588 41.96238 49.09591 32.41469 
0.474510 41.63164 48.73665 32.05591 
0.478431 41.30000 48.37678 31.69931 
0.482353 40.96748 48.01628 31.34488 
0.486275 40.63407 47.65513 30.99263 
0.490196 40.29976 47.29333 30.64253 
0.494118 39.96457 46.93084 30.29459 
0.498039 39.62850 46.56766 29.94879 
0.501961 39.29158 46.20376 29.60514 
0.505882 38.95383 45.83912 29.26362 
0.509804 38.61529 45.47375 28.92422 
0.513725 38.27596 45.10760 28.58694 
0.517647 37.93589 44.74067 28.25177 
0.521569 37.59510 44.37293 27.91870 
0.525490 37.25362 44.00436 27.58771 
0.529412 36.91147 43.63496 27.25882 
0.533333 36.56869 43.26468 26.93199 
0.537255 36.22530 42.89353 26.60723 
0.541176 35.88133 42.52148 26.28453 
0.545098 35.53682 42.14851 25.96387 
0.549020 35.19179 41.77459 25.64525 
0.552941 34.84628 41.39971 25.32866 
0.556863 34.50033 41.02386 25.01408 
0.560784 34.15394 40.64699 24.70152 
0.564706 33.80718 40.26911 24.39095 
0.568627 33.46005 39.89018 24.08237 
0.572549 33.11261 39.51019 23.77577 
0.576471 32.76488 39.12912 23.47113 
0.580392 32.41690 38.74694 23.16846 
0.584314 32.06870 38.36362 22.86773 
0.588235 31.72032 37.97918 22.56895 
0.592157 31.37179 37.59359 22.27208 
0.596078 31.02315 37.20689 21.97714 
0.600000 30.67443 36.81911 21.68410 
0.603922 30.32567 36.43028 21.39296 
0.607843 29.97690 36.04044 21.10371 
0.611765 29.62816 35.64961 20.81633 
0.615686 29.27949 35.25782 20.53081 
0.619608 28.93092 34.86512 20.24716 
0.623529 28.58249 34.47154 19.96534 
0.627451 28.23423 34.07713 19.68536 
0.631373 27.88618 33.68190 19.40721 
0.635294 27.53838 33.28592 19.13086 
0.639216 27.19086 32.88921 18.85632 
0.643137 26.84366 32.49183 18.58357 
0.647059 26.49681 32.09382 18.31260 
0.650980 26.15036 31.69523 18.04341 
0.654902 25.80433 31.29610 17.77596 
0.658824 25.45876 30.89647 17.51028 
0.662745 25.11368 30.49641 17.24633 
0.666667 24.76914 30.09596 16.98411 
0.670588 24.42516 29.69518 16.72361 
0.674510 24.08178 29.29411 16.46482 
0.678431 23.73903 28.89280 16.20772 
0.682353 23.39696 28.49133 15.95232 
0.686275 23.05558 28.08973 15.69859 
0.690196 22.71493 27.68806 15.44653 
0.694118 22.37505 27.28639 15.19612 
0.698039 22.03597 26.88476 14.94736 
0.701961 21.69772 26.48325 14.70024 
0.705882 21.36033 26.08190 14.45474 
0.709804 21.02383 25.68077 14.21086 
0.713725 20.68826 25.27993 13.96858 
0.717647 20.35363 24.87944 13.72791 
0.721569 20.01999 24.47934 13.48881 
0.725490 19.68735 24.07971 13.25130 
0.729412 19.35575 23.68060 13.01535 
0.733333 19.02522 23.28208 12.78095 
0.737255 18.69578 22.88419 12.54811 
0.741176 18.36746 22.48700 12.31680 
0.745098 18.04029 22.09058 12.08701 
0.749020 17.71429 21.69497 11.85875 
0.752941 17.38948 21.30023 11.63199 
0.756863 17.06589 20.90643 11.40673 
0.760784 16.74354 20.51362 11.18296 
0.764706 16.42246 20.12186 10.96066 
0.768627 16.10267 19.73120 10.73984 
0.772549 15.78419 19.34170 10.52047 
0.776471 15.46704 18.95341 10.30256 
0.780392 15.15124 18.56638 10.08609 
0.784314 14.83682 18.18066 9.871053 
0.788235 14.52379 17.79632 9.657439 
0.792157 14.21216 17.41339 9.445239 
0.796078 13.90197 17.03192 9.234442 
0.800000 13.59321 16.65198 9.025039 
0.803922 13.28593 16.27359 8.817019 
0.807843 12.98012 15.89680 8.610389 
0.811765 12.67580 15.52167 8.405122 
0.815686 12.37300 15.14822 8.201208 
0.819608 12.07171 14.77651 7.998655 
0.823529 11.77197 14.40658 7.797442 
0.827451 11.47378 14.03846 7.597557 
0.831373 11.17715 13.67219 7.399007 
0.835294 10.88210 13.30781 7.201760 
0.839216 10.58863 12.94535 7.005836 
0.843137 10.29676 12.58485 6.811198 
0.847059 10.00651 12.22633 6.617862 
0.850980 9.717866 11.86984 6.425802 
0.854902 9.430856 11.51539 6.235015 
0.858824 9.145484 11.16302 6.045502 
0.862745 8.861759 10.81275 5.857238 
0.866667 8.579685 10.46462 5.670223 
0.870588 8.299271 10.11864 5.484459 
0.874510 8.020525 9.774828 5.299922 
0.878431 7.743458 9.433226 5.116608 
0.882353 7.468065 9.093832 4.934510 
0.886275 7.194360 8.756684 4.753624 
0.890196 6.922347 8.421790 4.573942 
0.894118 6.652026 8.089163 4.395453 
0.898039 6.383408 7.758832 4.218149 
0.901961 6.116489 7.430804 4.042022 
0.905882 5.851277 7.105088 3.867065 
0.909804 5.587778 6.781700 3.693270 
0.913725 5.325983 6.460650 3.520630 
0.917647 5.065905 6.141950 3.349137 
0.921569 4.807545 5.825609 3.178783 
0.925490 4.550898 5.511634 3.009560 
0.929412 4.295968 5.200034 2.841468 
0.933333 4.042755 4.890811 2.674496 
0.937255 3.791260 4.583970 2.508632 
0.941176 3.541483 4.279516 2.343869 
0.945098 3.293424 3.977463 2.180197 
0.949020 3.047082 3.677802 2.017627 
0.952941 2.802456 3.380528 1.856137 
0.956863 2.559542 3.085665 1.695715 
0.960784 2.318340 2.793190 1.536369 
0.964706 2.078844 2.503119 1.378087 
0.968627 1.841066 2.215436 1.220850 
0.972549 1.604991 1.930159 1.064681 
0.976471 1.370612 1.647263 0.909543 
0.980392 1.137944 1.366762 0.755454 
0.984314 0.906966 1.088652 0.602394 
0.988235 0.677687 0.812920 0.450369 
0.992157 0.450098 0.539567 0.299360 
0.996078 0.224206 0.268592 0.149333 
1.000000 0.00000 0.00000 0.00000 
END_DATA
CALDEEQ

DESCRIPTOR "Argyll Output Calibration adE76 to rdE94 equivalence"
ORIGINATOR "Argyll printcal"
CREATED "Sat Oct 18 00:20:28 20"
DEVICE_CLASS "OUTPUT"
COLOR_REP "iRGB"

NUMBER_OF_FIELDS 7
BEGIN_DATA_FORMAT
ID RGB_R_ADE RGB_R_RDE RGB_G_ADE RGB_G_RDE RGB_B_ADE RGB_B_RDE 
END_DATA_FORMAT

NUMBER_OF_SETS 256
BEGIN_DATA
1 0.00000 0.00000 0.00000 0.00000 0.00000 0.00000 
2 0.304443 0.300709 0.360887 0.354467 0.360637 0.357865 
3 0.608886 0.598393 0.721775 0.704801 0.721274 0.710392 
4 0.913329 0.893144 1.082662 1.051144 1.081911 1.057378 
5 1.217772 1.185027 1.443550 1.393624 1.442547 1.399012 
6 1.522215 1.474132 1.804437 1.732362 1.803184 1.735460 
7 1.826657 1.760534 2.165324 2.067469 2.163821 2.066900 
8 2.131100 2.044289 2.526212 2.399049 2.524458 2.393482 
9 2.435543 2.325473 2.887099 2.727216 2.885095 2.715342 
10 2.739986 2.604154 3.247986 3.052074 3.245732 3.032614 
11 3.044429 2.880386 3.608874 3.373719 3.606368 3.345438 
12 3.348872 3.154233 3.969761 3.692246 3.967005 3.653939 
13 3.653315 3.425761 4.330649 4.007742 4.327642 3.958226 
14 3.957758 3.695016 4.691536 4.320294 4.688279 4.258416 
15 4.262201 3.962058 5.052423 4.629995 5.048916 4.554626 
16 4.566644 4.226947 5.413311 4.936926 5.409553 4.846961 
17 4.871087 4.489725 5.774198 5.241168 5.770189 5.135508 
18 5.175529 4.750448 6.135086 5.542800 6.130826 5.420376 
19 5.479972 5.009167 6.495973 5.841892 6.491463 5.701660 
20 5.784415 5.265926 6.856860 6.138519 6.852100 5.979450 
21 6.088858 5.520773 7.217748 6.432755 7.212737 6.253820 
22 6.393301 5.773757 7.578635 6.724672 7.573374 6.524866 
23 6.697744 6.024918 7.939522 7.014335 7.934011 6.792668 
24 7.002187 6.274299 8.300410 7.301810 8.294647 7.057302 
25 7.306630 6.521946 8.661297 7.587158 8.655284 7.318835 
26 7.611073 6.767896 9.022185 7.870440 9.015921 7.577350 
27 7.915516 7.012190 9.383072 8.151723 9.376558 7.832915 
28 8.219959 7.254871 9.743959 8.431064 9.737195 8.085595 
29 8.524401 7.495970 10.10485 8.708522 10.09783 8.335451 
30 8.828844 7.735528 10.46573 8.984154 10.45847 8.582554 
31 9.133287 7.973585 10.82662 9.258012 10.81911 8.826964 
32 9.437730 8.210166 11.18751 9.530146 11.17974 9.068735 
33 9.742173 8.445315 11.54840 9.800614 11.54038 9.307926 
34 10.04662 8.679065 11.90928 10.06947 11.90102 9.544596 
35 10.35106 8.911442 12.27017 10.33676 12.26165 9.778797 
36 10.65550 9.142488 12.63106 10.60254 12.62229 10.01058 
37 10.95994 9.372228 12.99195 10.86685 12.98293 10.23999 
38 11.26439 9.600695 13.35283 11.12974 13.34356 10.46708 
39 11.56883 9.827923 13.71372 11.39126 13.70420 10.69191 
40 11.87327 10.05393 14.07461 11.65145 14.06484 10.91451 
41 12.17772 10.27876 14.43550 11.91036 14.42547 11.13492 
42 12.48216 10.50244 14.79638 12.16803 14.78611 11.35320 
43 12.78660 10.72498 15.15727 12.42451 15.14675 11.56939 
44 13.09105 10.94643 15.51816 12.67983 15.50738 11.78352 
45 13.39549 11.16681 15.87904 12.93405 15.86802 11.99564 
46 13.69993 11.38614 16.23993 13.18719 16.22866 12.20578 
47 14.00437 11.60445 16.60082 13.43930 16.58929 12.41399 
48 14.30882 11.82177 16.96171 13.69042 16.94993 12.62029 
49 14.61326 12.03812 17.32259 13.94059 17.31057 12.82473 
50 14.91770 12.25352 17.68348 14.18985 17.67121 13.02734 
51 15.22215 12.46801 18.04437 14.43823 18.03184 13.22815 
52 15.52659 12.68160 18.40526 14.68577 18.39248 13.42720 
53 15.83103 12.89431 18.76614 14.93251 18.75312 13.62451 
54 16.13547 13.10618 19.12703 15.17849 19.11375 13.82013 
55 16.43992 13.31722 19.48792 15.42374 19.47439 14.01408 
56 16.74436 13.52746 19.84881 15.66829 19.83503 14.20639 
57 17.04880 13.73692 20.20969 15.91219 20.19566 14.39708 
58 17.35325 13.94562 20.57058 16.15546 20.55630 14.58620 
59 17.65769 14.15358 20.93147 16.39813 20.91694 14.77376 
60 17.96213 14.36082 21.29236 16.64025 21.27757 14.95979 
61 18.26657 14.56736 21.65324 16.88185 21.63821 15.14432 
