ColorChecker24/sanded-black-bg/ColorChecker24.ti2
CTI2   

DESCRIPTOR "Argyll Calibration Target chart information 2"
ORIGINATOR "Argyll printtarg"
CREATED "Sun Oct 12 20:45:19 2025"
TARGET_INSTRUMENT "GretagMacbeth SpectroScan"
COMP_GREY_STEPS "6"
APPROX_WHITE_POINT "95.106486 100.000000 108.844025"
TOTAL_INK_LIMIT "400.0"
COLOR_REP "iRGB"
PAPER_SIZE "101.6x152.4"
CHART_ID "7"
STEPS_IN_PASS "6"
PASSES_IN_STRIPS2 "4"
STRIP_INDEX_PATTERN "A-Z, A-Z"
PATCH_INDEX_PATTERN "0-9,@-9,@-9;1-999"
INDEX_ORDER "STRIP_THEN_PATCH"

NUMBER_OF_FIELDS 8
BEGIN_DATA_FORMAT
SAMPLE_ID SAMPLE_LOC RGB_R RGB_G RGB_B XYZ_X XYZ_Y XYZ_Z 
END_DATA_FORMAT

NUMBER_OF_SETS 24
BEGIN_DATA
1 "A1" 100.0000 100.0000 100.0000 95.10649 100.0000 108.8440 
2 "A2" 80.00000 80.00000 80.00000 57.82407 60.77891 66.11917 
3 "A3" 60.00000 60.00000 60.00000 30.97732 32.53613 35.35337 
4 "A4" 40.00000 40.00000 40.00000 13.50377 14.15396 15.32905 
5 "A5" 20.00000 20.00000 20.00000 4.115373 4.277372 4.570151 
6 "A6" 0.00000 0.00000 0.00000 1.000000 1.000000 1.000000 
7 "B1" 100.0000 100.0000 0.00000 77.23538 92.85269 14.71507 
8 "B2" 0.00000 100.0000 0.00000 36.40521 71.80052 12.80184 
9 "B3" 0.00000 0.00000 100.0000 18.87111 8.147314 95.12896 
10 "B4" 100.0000 0.00000 100.0000 59.70128 29.19948 97.04219 
11 "B5" 100.0000 0.00000 0.00000 41.83017 22.05217 2.913230 
12 "B6" 0.00000 100.0000 100.0000 54.27632 78.94783 106.9308 
13 "C1" 0.00000 50.62333 100.0000 26.65540 23.71372 97.72375 
14 "C2" 100.0000 0.00000 50.56992 45.75019 23.61993 23.56039 
15 "C3" 100.0000 51.56329 0.00000 49.93083 38.25123 5.613475 
16 "C4" 0.00000 100.0000 50.29526 40.27945 73.34997 33.20784 
17 "C5" 40.13123 45.86252 0.00000 12.75470 16.39917 3.353389 
18 "C6" 43.11284 0.00000 47.26940 10.74767 5.633949 19.14768 
19 "D1" 61.79446 100.0000 51.25048 54.31866 80.57001 34.70599 
20 "D2" 62.18662 51.40917 100.0000 40.99185 31.49733 98.47113 
21 "D3" 5.409323 30.27085 62.35904 10.01400 8.849905 34.52978 
22 "D4" 28.47333 79.04173 76.76661 34.33610 47.93178 59.87618 
23 "D5" 32.00580 77.60891 22.73442 25.13925 42.99902 11.79650 
24 "D6" 75.67712 27.20989 28.89143 26.11084 16.96885 9.118586 
END_DATA
CAL    

DESCRIPTOR "Argyll Device Calibration Curves"
ORIGINATOR "Argyll printcal"
CREATED "Sun Oct 12 20:45:19 2025"
DEVICE_CLASS "OUTPUT"
COLOR_REP "iRGB"

NUMBER_OF_FIELDS 4
BEGIN_DATA_FORMAT
RGB_I RGB_R RGB_G RGB_B 
END_DATA_FORMAT

NUMBER_OF_SETS 256
BEGIN_DATA
0.00000 0.00000 0.00000 0.00000 
0.00392157 0.00445984 0.00443736 0.00770723 
0.00784314 0.00891789 0.00887327 0.0153719 
0.0117647 0.0133742 0.0133079 0.0229942 
0.0156863 0.0178287 0.0177411 0.0305740 
0.0196078 0.0222814 0.0221730 0.0381116 
0.0235294 0.0267322 0.0266035 0.0456072 
0.0274510 0.0311812 0.0310326 0.0530609 
0.0313725 0.0356283 0.0354603 0.0604729 
0.0352941 0.0400736 0.0398865 0.0678432 
0.0392157 0.0445170 0.0443112 0.0751721 
0.0431373 0.0489585 0.0487345 0.0824596 
0.0470588 0.0533981 0.0531564 0.0897060 
0.0509804 0.0578357 0.0575768 0.0969113 
0.0549020 0.0622713 0.0619957 0.104076 
0.0588235 0.0667051 0.0664130 0.111200 
0.0627451 0.0711368 0.0708288 0.118283 
0.0666667 0.0755665 0.0752431 0.125326 
0.0705882 0.0799943 0.0796558 0.132329 
0.0745098 0.0844199 0.0840669 0.139291 
0.0784314 0.0888436 0.0884765 0.146214 
0.0823529 0.0932652 0.0928844 0.153097 
0.0862745 0.0976846 0.0972908 0.159940 
0.0901961 0.102102 0.101695 0.166744 
0.0941176 0.106517 0.106098 0.173508 
0.0980392 0.110930 0.110500 0.180234 
0.101961 0.115341 0.114900 0.186920 
0.105882 0.119750 0.119298 0.193567 
0.109804 0.124157 0.123694 0.200176 
0.113725 0.128561 0.128088 0.206747 
0.117647 0.132963 0.132481 0.213279 
0.121569 0.137363 0.136872 0.219773 
0.125490 0.141761 0.141262 0.226229 
0.129412 0.146156 0.145649 0.232647 
0.133333 0.150549 0.150035 0.239027 
0.137255 0.154940 0.154418 0.245370 
0.141176 0.159328 0.158800 0.251675 
0.145098 0.163714 0.163180 0.257944 
0.149020 0.168098 0.167559 0.264175 
0.152941 0.172479 0.171935 0.270369 
0.156863 0.176858 0.176309 0.276527 
0.160784 0.181234 0.180682 0.282648 
0.164706 0.185608 0.185052 0.288733 
0.168627 0.189980 0.189420 0.294782 
0.172549 0.194349 0.193787 0.300794 
0.176471 0.198715 0.198151 0.306771 
0.180392 0.203079 0.202513 0.312712 
0.184314 0.207440 0.206874 0.318617 
0.188235 0.211799 0.211232 0.324487 
0.192157 0.216155 0.215588 0.330322 
0.196078 0.220508 0.219942 0.336122 
0.200000 0.224859 0.224294 0.341887 
0.203922 0.229207 0.228643 0.347617 
0.207843 0.233552 0.232991 0.353312 
0.211765 0.237895 0.237336 0.358973 
0.215686 0.242234 0.241679 0.364600 
0.219608 0.246571 0.246019 0.370193 
0.223529 0.250905 0.250358 0.375752 
0.227451 0.255237 0.254694 0.381278 
0.231373 0.259565 0.259027 0.386769 
0.235294 0.263891 0.263358 0.392228 
0.239216 0.268214 0.267687 0.397653 
0.243137 0.272533 0.272014 0.403045 
0.247059 0.276850 0.276338 0.408404 
0.250980 0.281164 0.280659 0.413730 
0.254902 0.285475 0.284978 0.419024 
0.258824 0.289783 0.289295 0.424286 
0.262745 0.294087 0.293609 0.429515 
0.266667 0.298389 0.297920 0.434712 
0.270588 0.302687 0.302229 0.439877 
0.274510 0.306982 0.306535 0.445010 
0.278431 0.311275 0.310839 0.450112 
0.282353 0.315563 0.315140 0.455183 
0.286275 0.319849 0.319438 0.460222 
0.290196 0.324132 0.323733 0.465230 
0.294118 0.328411 0.328026 0.470207 
0.298039 0.332686 0.332315 0.475153 
0.301961 0.336959 0.336602 0.480069 
0.305882 0.341228 0.340886 0.484954 
0.309804 0.345493 0.345167 0.489809 
0.313725 0.349756 0.349446 0.494634 
0.317647 0.354014 0.353721 0.499429 
0.321569 0.358269 0.357993 0.504194 
0.325490 0.362521 0.362262 0.508929 
0.329412 0.366769 0.366528 0.513635 
0.333333 0.371014 0.370792 0.518311 
0.337255 0.375254 0.375051 0.522958 
0.341176 0.379491 0.379308 0.527577 
0.345098 0.383725 0.383562 0.532166 
0.349020 0.387955 0.387812 0.536727 
0.352941 0.392180 0.392059 0.541259 
0.356863 0.396403 0.396303 0.545763 
0.360784 0.400621 0.400543 0.550238 
0.364706 0.404835 0.404780 0.554686 
0.368627 0.409046 0.409014 0.559105 
0.372549 0.413252 0.413244 0.563497 
0.376471 0.417455 0.417470 0.567861 
0.380392 0.421653 0.421693 0.572198 
0.384314 0.425848 0.425913 0.576507 
0.388235 0.430038 0.430129 0.580789 
0.392157 0.434224 0.434341 0.585044 
0.396078 0.438406 0.438549 0.589272 
0.400000 0.442584 0.442754 0.593474 
0.403922 0.446758 0.446955 0.597649 
0.407843 0.450927 0.451152 0.601798 
0.411765 0.455092 0.455345 0.605920 
0.415686 0.459253 0.459535 0.610016 
0.419608 0.463409 0.463720 0.614086 
0.423529 0.467561 0.467901 0.618131 
0.427451 0.471708 0.472079 0.622149 
0.431373 0.475851 0.476252 0.626143 
0.435294 0.479989 0.480421 0.630111 
0.439216 0.484122 0.484586 0.634053 
0.443137 0.488251 0.488746 0.637971 
0.447059 0.492376 0.492903 0.641863 
0.450980 0.496495 0.497055 0.645731 
0.454902 0.500610 0.501202 0.649574 
0.458824 0.504720 0.505345 0.653393 
0.462745 0.508825 0.509484 0.657187 
0.466667 0.512925 0.513618 0.660957 
0.470588 0.517020 0.517747 0.664703 
0.474510 0.521110 0.521872 0.668425 
0.478431 0.525195 0.525992 0.672123 
0.482353 0.529275 0.530107 0.675798 
0.486275 0.533350 0.534218 0.679449 
0.490196 0.537419 0.538324 0.683077 
0.494118 0.541484 0.542424 0.686681 
0.498039 0.545543 0.546520 0.690262 
0.501961 0.549596 0.550611 0.693821 
0.505882 0.553645 0.554696 0.697356 
0.509804 0.557688 0.558776 0.700869 
0.513725 0.561725 0.562851 0.704359 
0.517647 0.565757 0.566921 0.707827 
0.521569 0.569783 0.570986 0.711272 
0.525490 0.573804 0.575045 0.714696 
0.529412 0.577819 0.579098 0.718097 
0.533333 0.581828 0.583146 0.721476 
0.537255 0.585832 0.587189 0.724834 
0.541176 0.589829 0.591225 0.728170 
0.545098 0.593821 0.595256 0.731484 
0.549020 0.597807 0.599282 0.734777 
0.552941 0.601786 0.603301 0.738049 
0.556863 0.605760 0.607314 0.741300 
0.560784 0.609728 0.611322 0.744529 
0.564706 0.613689 0.615323 0.747738 
0.568627 0.617644 0.619318 0.750926 
0.572549 0.621593 0.623307 0.754093 
0.576471 0.625536 0.627289 0.757240 
0.580392 0.629472 0.631265 0.760367 
0.584314 0.633402 0.635235 0.763473 
0.588235 0.637325 0.639198 0.766560 
0.592157 0.641241 0.643155 0.769626 
0.596078 0.645151 0.647104 0.772672 
0.600000 0.649055 0.651048 0.775699 
0.603922 0.652951 0.654984 0.778706 
0.607843 0.656841 0.658913 0.781693 
0.611765 0.660724 0.662835 0.784661 
0.615686 0.664600 0.666751 0.787610 
0.619608 0.668469 0.670659 0.790540 
0.623529 0.672331 0.674559 0.793450 
0.627451 0.676186 0.678453 0.796342 
0.631373 0.680033 0.682339 0.799215 
0.635294 0.683874 0.686217 0.802069 
0.639216 0.687707 0.690088 0.804905 
0.643137 0.691533 0.693952 0.807722 
0.647059 0.695351 0.697807 0.810521 
0.650980 0.699162 0.701655 0.813301 
0.654902 0.702965 0.705494 0.816064 
0.658824 0.706761 0.709326 0.818808 
0.662745 0.710549 0.713149 0.821535 
0.666667 0.714329 0.716964 0.824243 
0.670588 0.718102 0.720771 0.826935 
0.674510 0.721866 0.724570 0.829608 
0.678431 0.725623 0.728360 0.832264 
0.682353 0.729371 0.732141 0.834903 
0.686275 0.733112 0.735914 0.837525 
0.690196 0.736844 0.739678 0.840129 
0.694118 0.740568 0.743433 0.842717 
0.698039 0.744284 0.747179 0.845287 
0.701961 0.747992 0.750915 0.847841 
0.705882 0.751691 0.754643 0.850378 
0.709804 0.755382 0.758361 0.852898 
0.713725 0.759064 0.762070 0.855402 
0.717647 0.762737 0.765770 0.857890 
0.721569 0.766402 0.769459 0.860361 
0.725490 0.770058 0.773139 0.862816 
0.729412 0.773705 0.776810 0.865255 
0.733333 0.777343 0.780470 0.867678 
0.737255 0.780972 0.784120 0.870085 
0.741176 0.784592 0.787760 0.872477 
0.745098 0.788203 0.791390 0.874853 
0.749020 0.791805 0.795009 0.877213 
0.752941 0.795398 0.798618 0.879557 
0.756863 0.798981 0.802217 0.881887 
0.760784 0.802555 0.805805 0.884201 
0.764706 0.806120 0.809381 0.886500 
0.768627 0.809675 0.812947 0.888783 
0.772549 0.813220 0.816502 0.891052 
0.776471 0.816755 0.820046 0.893306 
0.780392 0.820281 0.823579 0.895545 
0.784314 0.823797 0.827100 0.897769 
0.788235 0.827303 0.830610 0.899979 
0.792157 0.830799 0.834108 0.902174 
0.796078 0.834285 0.837594 0.904355 
0.800000 0.837761 0.841069 0.906522 
0.803922 0.841227 0.844532 0.908674 
0.807843 0.844682 0.847982 0.910812 
0.811765 0.848127 0.851421 0.912936 
0.815686 0.851562 0.854847 0.915046 
0.819608 0.854986 0.858261 0.917142 
0.823529 0.858400 0.861662 0.919225 
0.827451 0.861803 0.865050 0.921293 
0.831373 0.865196 0.868426 0.923349 
0.835294 0.868577 0.871789 0.925390 
0.839216 0.871948 0.875139 0.927418 
0.843137 0.875308 0.878476 0.929433 
0.847059 0.878657 0.881800 0.931434 
0.850980 0.881995 0.885111 0.933423 
0.854902 0.885321 0.888408 0.935398 
0.858824 0.888637 0.891691 0.937360 
0.862745 0.891941 0.894961 0.939309 
0.866667 0.895234 0.898218 0.941246 
0.870588 0.898516 0.901460 0.943169 
0.874510 0.901786 0.904688 0.945080 
0.878431 0.905045 0.907902 0.946978 
0.882353 0.908292 0.911102 0.948864 
0.886275 0.911527 0.914288 0.950738 
0.890196 0.914751 0.917459 0.952599 
0.894118 0.917962 0.920616 0.954447 
0.898039 0.921162 0.923758 0.956284 
0.901961 0.924350 0.926886 0.958108 
0.905882 0.927527 0.929998 0.959921 
0.909804 0.930691 0.933096 0.961721 
0.913725 0.933842 0.936178 0.963510 
0.917647 0.936982 0.939246 0.965286 
0.921569 0.940110 0.942298 0.967051 
0.925490 0.943225 0.945335 0.968805 
0.929412 0.946328 0.948356 0.970546 
0.933333 0.949418 0.951362 0.972277 
0.937255 0.952496 0.954352 0.973996 
0.941176 0.955561 0.957327 0.975703 
0.945098 0.958614 0.960285 0.977399 
0.949020 0.961654 0.963228 0.979084 
0.952941 0.964682 0.966155 0.980758 
0.956863 0.967696 0.969066 0.982421 
0.960784 0.970698 0.971960 0.984072 
0.964706 0.973687 0.974839 0.985713 
0.968627 0.976663 0.977701 0.987343 
0.972549 0.979626 0.980546 0.988962 
0.976471 0.982576 0.983376 0.990571 
0.980392 0.985513 0.986188 0.992169 
0.984314 0.988437 0.988984 0.993756 
0.988235 0.991348 0.991763 0.995333 
0.992157 0.994245 0.994526 0.996899 
0.996078 0.997129 0.997271 0.998455 
1.000000 1.000000 1.000000 1.000000 
END_DATA
