ColorChecker24/glossy/ColorChecker24.ti1
CTI1   

DESCRIPTOR "Argyll Calibration Target chart information 1"
ORIGINATOR "Argyll targen"
CREATED "Sun Oct 12 20:36:12 2025"
APPROX_WHITE_POINT "95.106486 100.000000 108.844025"
COLOR_REP "iRGB"
TOTAL_INK_LIMIT "400.0"
COMP_GREY_STEPS "6"
OFPS_PATCHES "18"

NUMBER_OF_FIELDS 7
BEGIN_DATA_FORMAT
SAMPLE_ID RGB_R RGB_G RGB_B XYZ_X XYZ_Y XYZ_Z 
END_DATA_FORMAT

NUMBER_OF_SETS 24
BEGIN_DATA
1 100.0000 100.0000 100.0000 95.10649 100.0000 108.8440 
2 80.00000 80.00000 80.00000 57.82407 60.77891 66.11917 
3 60.00000 60.00000 60.00000 30.97732 32.53613 35.35337 
4 40.00000 40.00000 40.00000 13.50377 14.15396 15.32905 
5 20.00000 20.00000 20.00000 4.115373 4.277372 4.570151 
6 0.00000 0.00000 0.00000 1.000000 1.000000 1.000000 
7 100.0000 100.0000 0.00000 77.23538 92.85269 14.71507 
8 0.00000 100.0000 0.00000 36.40521 71.80052 12.80184 
9 0.00000 0.00000 100.0000 18.87111 8.147314 95.12896 
10 100.0000 0.00000 100.0000 59.70128 29.19948 97.04219 
11 100.0000 0.00000 0.00000 41.83017 22.05217 2.913230 
12 0.00000 100.0000 100.0000 54.27632 78.94783 106.9308 
13 0.00000 50.62406 100.0000 26.65540 23.71372 97.72375 
14 100.0000 0.00000 50.56945 45.75019 23.61993 23.56039 
15 100.0000 51.56346 0.00000 49.93083 38.25123 5.613475 
16 0.00000 100.0000 50.29564 40.27945 73.34997 33.20784 
17 40.13056 45.86213 0.00000 12.75470 16.39917 3.353389 
18 43.11262 0.00000 47.26924 10.74767 5.633949 19.14768 
19 61.79504 100.0000 51.25011 54.31866 80.57001 34.70599 
20 62.18597 51.40922 100.0000 40.99185 31.49733 98.47113 
21 5.408594 30.27027 62.35848 10.01400 8.849905 34.52978 
22 28.47279 79.04151 76.76610 34.33610 47.93178 59.87618 
23 32.00651 77.60863 22.73516 25.13925 42.99902 11.79650 
24 75.67646 27.20958 28.89130 26.11084 16.96885 9.118586 
END_DATA
CTI1   

DESCRIPTOR "Argyll Calibration Target chart information 1"
ORIGINATOR "Argyll targen"
DENSITY_EXTREME_VALUES "8"
CREATED "October 12, 2025"

NUMBER_OF_FIELDS 7
BEGIN_DATA_FORMAT
INDEX RGB_R RGB_G RGB_B XYZ_X XYZ_Y XYZ_Z 
END_DATA_FORMAT

NUMBER_OF_SETS 8
BEGIN_DATA
0 100.0000 100.0000 100.0000 95.10649 100.0000 108.8440 
1 0.00000 47.36069 100.0000 25.61297 21.62916 97.37627 
2 100.0000 0.00000 79.35138 52.42580 26.28975 58.72152 
3 0.00000 0.00000 58.99714 6.485834 3.193987 29.89445 
4 100.0000 66.65930 0.00000 56.05879 50.50543 7.656144 
5 0.00000 35.60114 0.00000 4.685619 8.370208 2.228550 
6 84.44436 0.00000 0.00000 28.84279 15.35583 2.304665 
7 0.00000 0.00000 0.00000 1.000000 1.000000 1.000000 
END_DATA
CTI1   

DESCRIPTOR "Argyll Calibration Target chart information 1"
ORIGINATOR "Argyll targen"
DEVICE_COMBINATION_VALUES "9"
CREATED "October 12, 2025"

NUMBER_OF_FIELDS 7
BEGIN_DATA_FORMAT
INDEX RGB_R RGB_G RGB_B XYZ_X XYZ_Y XYZ_Z 
END_DATA_FORMAT

NUMBER_OF_SETS 9
BEGIN_DATA
0 100.0000 100.0000 100.0000 95.10649 100.0000 108.8440 
1 0.00000 100.0000 100.0000 54.27632 78.94783 106.9308 
2 100.0000 0.00000 100.0000 59.70128 29.19948 97.04219 
3 0.00000 0.00000 100.0000 18.87111 8.147314 95.12896 
4 100.0000 100.0000 0.00000 77.23538 92.85269 14.71507 
5 0.00000 100.0000 0.00000 36.40521 71.80052 12.80184 
6 100.0000 0.00000 0.00000 41.83017 22.05217 2.913230 
7 0.00000 0.00000 0.00000 1.000000 1.000000 1.000000 
8 50.00000 50.00000 50.00000 21.14266 22.19007 24.08306 
END_DATA
