ColorChecker24/glossy/ColorChecker24.ti3
CTI3   

DESCRIPTOR "Argyll Calibration Target chart information 3"
ORIGINATOR "Argyll chartread"
CREATED "Sun Oct 12 20:40:05 2025"
DEVICE_CLASS "OUTPUT"
COMP_GREY_STEPS "6"
TOTAL_INK_LIMIT "400.0"
COLOR_REP "iRGB_XYZ"
TARGET_INSTRUMENT "Unknown Instrument"

NUMBER_OF_FIELDS 8
BEGIN_DATA_FORMAT
SAMPLE_ID SAMPLE_LOC RGB_R RGB_G RGB_B XYZ_X XYZ_Y XYZ_Z 
END_DATA_FORMAT

NUMBER_OF_SETS 24
BEGIN_DATA
1 "A1" 100.0000 100.0000 100.0000 82.61920 86.83919 71.38662 
2 "A2" 80.00000 80.00000 80.00000 60.14557 64.14268 47.78580 
3 "A3" 60.00000 60.00000 60.00000 32.10723 35.09170 26.25303 
4 "A4" 40.00000 40.00000 40.00000 14.25787 15.77658 11.84105 
5 "A5" 20.00000 20.00000 20.00000 3.938579 4.555865 3.553639 
6 "A6" 0.00000 0.00000 0.00000 1.340801 1.710818 1.811267 
7 "B1" 100.0000 100.0000 0.00000 65.57990 72.79531 7.109553 
8 "B2" 0.00000 100.0000 0.00000 6.685267 17.11930 5.843127 
9 "B3" 0.00000 0.00000 100.0000 4.568125 2.540324 15.77778 
10 "B4" 100.0000 0.00000 100.0000 23.65946 12.02133 21.79050 
11 "B5" 100.0000 0.00000 0.00000 20.91827 10.92272 1.026311 
12 "B6" 0.00000 100.0000 100.0000 12.73191 21.93691 34.25421 
13 "C1" 0.00000 50.62333 100.0000 9.102569 11.11291 30.60709 
14 "C2" 100.0000 0.00000 50.56992 23.55024 11.99615 8.582996 
15 "C3" 100.0000 51.56329 0.00000 34.67043 25.77200 3.059221 
16 "C4" 0.00000 100.0000 50.29526 7.717955 18.74710 10.92493 
17 "C5" 40.13123 45.86252 0.00000 14.04230 19.26861 4.646690 
18 "C6" 43.11284 0.00000 47.26940 6.768163 4.042058 9.913758 
19 "D1" 61.79446 100.0000 51.25048 39.63446 55.57268 18.17265 
20 "D2" 62.18662 51.40917 100.0000 26.46467 24.28297 42.92456 
21 "D3" 5.409323 30.27085 62.35904 6.564792 7.317933 20.76195 
22 "D4" 28.47333 79.04173 76.76661 17.79725 28.01247 33.84359 
23 "D5" 32.00580 77.60891 22.73442 14.14698 25.82441 6.064115 
24 "D6" 75.67712 27.20989 28.89143 19.81270 12.41614 4.192955 
END_DATA
