SpyderCheckr24/front.ti2
CTI2   

DESCRIPTOR "Argyll Calibration Target chart information 2"
ORIGINATOR "Argyll printtarg"
CREATED "Tue Oct 14 23:35:58 2025"
TARGET_INSTRUMENT "GretagMacbeth SpectroScan"
APPROX_WHITE_POINT "96.420000 100.000000 82.490000"
TOTAL_INK_LIMIT "300.0"
COLOR_REP "iRGB"
PAPER_SIZE "101.6x152.4"
CHART_ID "22"
STEPS_IN_PASS "6"
PASSES_IN_STRIPS2 "4"
STRIP_INDEX_PATTERN "A-Z, A-Z"
PATCH_INDEX_PATTERN "0-9,@-9,@-9;1-999"
INDEX_ORDER "STRIP_THEN_PATCH"

NUMBER_OF_FIELDS 8
BEGIN_DATA_FORMAT
SAMPLE_ID SAMPLE_LOC RGB_R RGB_G RGB_B XYZ_X XYZ_Y XYZ_Z 
END_DATA_FORMAT

NUMBER_OF_SETS 24
BEGIN_DATA
1 "A1" 99.99390 99.99390 99.99390 96.42000 100.0000 82.49000 
2 "A2" 81.19631 81.19631 81.19631 59.96546 61.99574 52.09574 
3 "A3" 63.70336 63.70336 63.70336 34.90480 36.05801 30.36334 
4 "A4" 45.84115 45.84115 45.84115 17.07472 17.59791 14.77102 
5 "A5" 26.75822 26.75822 26.75822 5.642391 5.776083 4.737950 
6 "A6" 0.00000 0.00000 0.00000 0.00000 0.00000 0.00000 
7 "B1" 0.00000 53.81094 64.01312 11.77901 18.61838 28.57635 
8 "B2" 71.22606 29.32937 59.49340 27.47365 17.27158 23.65797 
9 "B3" 98.32761 78.95781 0.00000 63.91596 63.17860 3.903185 
10 "B4" 66.53086 0.00000 5.346761 17.15172 8.260857 0.770801 
11 "B5" 24.48920 56.10437 18.26658 13.11811 20.96756 4.734880 
12 "B6" 0.00000 17.50057 57.17556 4.720455 3.398582 20.70556 
13 "C1" 85.71908 41.69223 0.00000 36.15940 26.01380 1.471623 
14 "C2" 20.99336 33.27382 65.65042 10.62675 9.651096 28.67762 
15 "C3" 74.54185 27.22667 35.59167 26.28491 16.41823 8.733654 
16 "C4" 31.51446 13.09529 41.30617 6.162602 3.775630 10.41954 
17 "C5" 63.93225 71.80133 2.720684 34.26261 42.15066 5.264311 
18 "C6" 92.87709 59.12413 0.00000 48.58708 40.85522 3.366843 
19 "D1" 37.55245 76.15778 66.75212 31.66371 43.79689 34.20244 
20 "D2" 49.96719 51.20165 72.51698 24.93181 23.84689 37.09980 
21 "D3" 30.46311 37.69436 15.33989 8.102662 10.21252 2.700848 
22 "D4" 34.30991 48.29328 64.40528 17.17997 18.63892 28.65935 
23 "D5" 76.65980 57.63790 49.29274 38.13084 34.37744 18.42004 
24 "D6" 40.55390 23.83917 16.36683 8.077317 6.505242 2.275551 
END_DATA
