SpyderCheckr24/front-calibrated-ax.ti3
CTI3   

DESCRIPTOR "Argyll Calibration Target chart information 3"
ORIGINATOR "Argyll chartread"
CREATED "Wed Oct 15 11:30:53 2025"
DEVICE_CLASS "OUTPUT"
TOTAL_INK_LIMIT "300.0"
COLOR_REP "iRGB_XYZ"
TARGET_INSTRUMENT "Unknown Instrument"
INSTRUMENT_FILTER "D65"

NUMBER_OF_FIELDS 8
BEGIN_DATA_FORMAT
SAMPLE_ID SAMPLE_LOC RGB_R RGB_G RGB_B XYZ_X XYZ_Y XYZ_Z 
END_DATA_FORMAT

NUMBER_OF_SETS 24
BEGIN_DATA
1 "A1" 99.99390 99.99390 99.99390 82.08047 86.27545 70.95624 
2 "A2" 81.19631 81.19631 81.19631 57.50555 60.40901 46.68193 
3 "A3" 63.70336 63.70336 63.70336 35.16238 37.12406 29.23293 
4 "A4" 45.84115 45.84115 45.84115 17.65587 18.30169 14.89861 
5 "A5" 26.75822 26.75822 26.75822 6.526250 7.001358 6.142394 
6 "A6" 0.00000 0.00000 0.00000 1.737080 1.953256 1.754394 
7 "B1" 0.00000 53.81094 64.01312 15.23975 20.76379 30.37503 
8 "B2" 71.22606 29.32937 59.49340 31.12988 20.68228 20.58031 
9 "B3" 98.32761 78.95781 0.00000 57.05992 58.81536 6.296515 
10 "B4" 66.53086 0.00000 5.346761 16.16498 8.634078 0.943794 
11 "B5" 24.48920 56.10437 18.26658 15.75663 23.83280 5.277415 
12 "B6" 0.00000 17.50057 57.17556 5.975643 4.409018 17.43988 
13 "C1" 85.71908 41.69223 0.00000 33.09954 24.86127 2.865681 
14 "C2" 20.99336 33.27382 65.65042 12.11223 12.07180 27.76096 
15 "C3" 74.54185 27.22667 35.59167 23.32507 14.71403 6.573734 
16 "C4" 31.51446 13.09529 41.30617 5.810422 3.546034 10.45642 
17 "C5" 63.93225 71.80133 2.720684 33.05906 40.49408 5.793234 
18 "C6" 92.87709 59.12413 0.00000 43.40088 38.54447 4.450329 
19 "D1" 37.55245 76.15778 66.75212 30.56189 40.07090 32.25421 
20 "D2" 49.96719 51.20165 72.51698 23.05243 22.68848 34.55957 
21 "D3" 30.46311 37.69436 15.33989 9.109147 12.05285 3.584454 
22 "D4" 34.30991 48.29328 64.40528 17.70874 19.54602 30.02544 
23 "D5" 76.65980 57.63790 49.29274 33.83860 31.80332 17.17863 
24 "D6" 40.55390 23.83917 16.36683 7.362055 5.830213 1.905740 
END_DATA
