SpyderCheckr24/front.cie
IT8.7/2
ORIGINATOR "A Mk"
DESCRIPTOR "Datacolor SpyderCheckr24 (D65)"
CREATED  "oct, 15. 2025"
MANUFACTURER "DataColor"

NUMBER_OF_FIELDS 4
BEGIN_DATA_FORMAT
SAMPLE_ID XYZ_X XYZ_Y XYZ_Z
END_DATA_FORMAT

NUMBER_OF_SETS 24
BEGIN_DATA
A1 73.91 77.10 61.07
A2 46.79 48.66 39.28
A3 28.14 29.24 23.70
A4 14.87 15.43 12.53
A5 6.37  6.58  5.33
A6 2.17  2.26  1.94
B1 10.93 16.19 22.42
B2 22.61 15.18 18.90
B3 49.72 49.54 4.74
B4 14.93 8.44  2.49
B5 11.93 17.95 5.33
B6 5.68  4.80  16.78
C1 29.07 21.73 2.99
C2 10.08 9.48  22.50
C3 21.73 14.54 8.20
C4 6.76  5.08  9.41
C5 27.66 33.80 5.71
C6 38.32 32.83 4.35
D1 25.73 35.04 26.46
D2 20.72 20.10 28.53
D3 8.20  9.90  3.87
D4 14.95 16.21 22.48
D5 30.54 27.99 15.14
D6 8.18  7.129 3.57
END_DATA


