SpyderCheckr24/front-calibrated.ti3
CTI3   

DESCRIPTOR "Argyll Calibration Target chart information 3"
ORIGINATOR "Argyll chartread"
CREATED "Wed Oct 15 11:31:49 2025"
DEVICE_CLASS "OUTPUT"
TOTAL_INK_LIMIT "300.0"
COLOR_REP "iRGB_XYZ"
TARGET_INSTRUMENT "Unknown Instrument"
INSTRUMENT_FILTER "D65"

NUMBER_OF_FIELDS 8
BEGIN_DATA_FORMAT
SAMPLE_ID SAMPLE_LOC RGB_R RGB_G RGB_B XYZ_X XYZ_Y XYZ_Z 
END_DATA_FORMAT

NUMBER_OF_SETS 24
BEGIN_DATA
1 "A1" 99.99390 99.99390 99.99390 81.97176 86.20516 70.59679 
2 "A2" 81.19631 81.19631 81.19631 56.66066 59.98494 47.44238 
3 "A3" 63.70336 63.70336 63.70336 34.68607 36.56581 28.97090 
4 "A4" 45.84115 45.84115 45.84115 16.85412 17.39183 14.77096 
5 "A5" 26.75822 26.75822 26.75822 6.478887 6.827094 5.798682 
6 "A6" 0.00000 0.00000 0.00000 1.606902 1.870058 1.767166 
7 "B1" 0.00000 53.81094 64.01312 14.91515 21.01874 29.89620 
8 "B2" 71.22606 29.32937 59.49340 28.36954 18.42703 20.27995 
9 "B3" 98.32761 78.95781 0.00000 56.96519 58.74277 6.203692 
10 "B4" 66.53086 0.00000 5.346761 17.06554 9.060230 0.913406 
11 "B5" 24.48920 56.10437 18.26658 15.28463 23.71370 5.361603 
12 "B6" 0.00000 17.50057 57.17556 4.458682 2.984073 15.28652 
13 "C1" 85.71908 41.69223 0.00000 33.28728 25.42792 2.962697 
14 "C2" 20.99336 33.27382 65.65042 10.76068 10.67639 26.69403 
15 "C3" 74.54185 27.22667 35.59167 24.13115 15.29824 7.918671 
16 "C4" 31.51446 13.09529 41.30617 6.015690 3.900579 10.77200 
17 "C5" 63.93225 71.80133 2.720684 33.25813 40.63580 5.835971 
18 "C6" 92.87709 59.12413 0.00000 42.52030 36.93735 4.306731 
19 "D1" 37.55245 76.15778 66.75212 30.01515 42.26028 31.33542 
20 "D2" 49.96719 51.20165 72.51698 22.76637 22.22982 34.54046 
21 "D3" 30.46311 37.69436 15.33989 8.952846 11.87078 3.528165 
22 "D4" 34.30991 48.29328 64.40528 18.40318 20.02016 28.91105 
23 "D5" 76.65980 57.63790 49.29274 35.30942 33.53278 18.26182 
24 "D6" 40.55390 23.83917 16.36683 7.634005 6.346357 2.149747 
END_DATA
