SpyderCheckr24/front-printed.ti3
CTI3   

DESCRIPTOR "Argyll Calibration Target chart information 3"
ORIGINATOR "Argyll chartread"
CREATED "Wed Oct 15 11:30:07 2025"
DEVICE_CLASS "OUTPUT"
TOTAL_INK_LIMIT "300.0"
COLOR_REP "iRGB_XYZ"
TARGET_INSTRUMENT "Unknown Instrument"
INSTRUMENT_FILTER "D65"

NUMBER_OF_FIELDS 8
BEGIN_DATA_FORMAT
SAMPLE_ID SAMPLE_LOC RGB_R RGB_G RGB_B XYZ_X XYZ_Y XYZ_Z 
END_DATA_FORMAT

NUMBER_OF_SETS 24
BEGIN_DATA
1 "A1" 99.99390 99.99390 99.99390 81.94258 86.15832 70.71454 
2 "A2" 81.19631 81.19631 81.19631 56.66654 59.89301 46.24919 
3 "A3" 63.70336 63.70336 63.70336 32.12927 34.75823 26.89362 
4 "A4" 45.84115 45.84115 45.84115 16.61064 18.20183 13.82749 
5 "A5" 26.75822 26.75822 26.75822 5.168268 5.783674 4.415635 
6 "A6" 0.00000 0.00000 0.00000 1.108743 1.409388 1.429900 
7 "B1" 0.00000 53.81094 64.01312 7.393047 11.32346 22.20663 
8 "B2" 71.22606 29.32937 59.49340 19.57146 13.34598 19.08843 
9 "B3" 98.32761 78.95781 0.00000 54.16404 54.34074 5.682605 
10 "B4" 66.53086 0.00000 5.346761 12.94100 7.058625 0.856691 
11 "B5" 24.48920 56.10437 18.26658 8.133280 15.79925 4.724109 
12 "B6" 0.00000 17.50057 57.17556 4.207149 3.644634 13.82580 
13 "C1" 85.71908 41.69223 0.00000 24.51255 17.03174 2.007917 
14 "C2" 20.99336 33.27382 65.65042 8.203467 8.945939 23.20642 
15 "C3" 74.54185 27.22667 35.59167 18.23565 11.22086 5.410238 
16 "C4" 31.51446 13.09529 41.30617 4.071146 2.961736 7.067511 
17 "C5" 63.93225 71.80133 2.720684 27.43200 35.33674 5.406423 
18 "C6" 92.87709 59.12413 0.00000 36.12318 29.17982 3.335371 
19 "D1" 37.55245 76.15778 66.75212 17.63690 28.05678 24.89409 
20 "D2" 49.96719 51.20165 72.51698 21.33676 22.32486 33.86102 
21 "D3" 30.46311 37.69436 15.33989 6.479678 8.997769 3.109698 
22 "D4" 34.30991 48.29328 64.40528 13.85894 16.64532 28.09902 
23 "D5" 76.65980 57.63790 49.29274 31.93178 30.41423 18.10457 
24 "D6" 40.55390 23.83917 16.36683 6.068975 5.229916 1.855144 
END_DATA
