SpyderCheckr24/front.ti1
CTI1   

DESCRIPTOR "Argyll Calibration Target chart information 1"
ORIGINATOR "Argyll targen"
CREATED "Tue Oct 14 20:33:21 2025"
APPROX_WHITE_POINT "96.420000 100.000000 82.490000"
COLOR_REP "iRGB"
TOTAL_INK_LIMIT "300.0"
WHITE_COLOR_PATCHES "4"
BLACK_COLOR_PATCHES "4"
OFPS_PATCHES "16"

NUMBER_OF_FIELDS 7
BEGIN_DATA_FORMAT
SAMPLE_ID RGB_R RGB_G RGB_B XYZ_X XYZ_Y XYZ_Z 
END_DATA_FORMAT

NUMBER_OF_SETS 24
BEGIN_DATA
1 99.9936 99.9936 99.9936 96.420000 100.000000 82.490000 
2 81.1957 81.1957 81.1957 59.965462 61.995737 52.095736 
3 63.7040 63.7040 63.7040 34.904802 36.058008 30.363338 
4 45.8417 45.8417 45.8417 17.074720 17.597907 14.771018 
5 26.7586 26.7586 26.7586 5.642391 5.776083 4.737950 
6 0.0000 0.0000 0.0000 0.000000 0.000000 0.000000 
7 0.0000 53.8109 64.0127 11.779013 18.618384 28.576352 
8 71.2267 29.3287 59.4935 27.473649 17.271577 23.657965 
9 98.3274 78.9575 0.0000 63.915956 63.178604 3.903185 
10 66.5306 0.0000 5.3464 17.151722 8.260857 0.770801 
11 24.4892 56.1045 18.2673 13.118111 20.967563 4.734880 
12 0.0000 17.5012 57.1763 4.720455 3.398582 20.705558 
13 85.7198 41.6920 0.0000 36.159399 26.013802 1.471623 
14 20.9935 33.2744 65.6511 10.626755 9.651096 28.677621 
15 74.5424 27.2266 35.5921 26.284912 16.418234 8.733654 
16 31.5140 13.0949 41.3062 6.162602 3.775630 10.419538 
17 63.9327 71.8017 2.7201 34.262605 42.150657 5.264311 
18 92.8774 59.1238 0.0000 48.587082 40.855224 3.366843 
19 37.5524 76.1577 66.7518 31.663710 43.796885 34.202438 
20 49.9672 51.2011 72.5170 24.931809 23.846894 37.099803 
21 30.4629 37.6951 15.3404 8.102662 10.212525 2.700848 
22 34.3101 48.2934 64.4057 17.179974 18.638919 28.659348 
23 76.6601 57.6380 49.2933 38.130841 34.377442 18.420036 
24 40.5543 23.8393 16.3668 8.077317 6.505242 2.275551 
END_DATA
CTI1   

DESCRIPTOR "Argyll Calibration Target chart information 1"
ORIGINATOR "Argyll targen"
DENSITY_EXTREME_VALUES "8"
CREATED "October 14, 2025"

NUMBER_OF_FIELDS 7
BEGIN_DATA_FORMAT
INDEX RGB_R RGB_G RGB_B XYZ_X XYZ_Y XYZ_Z 
END_DATA_FORMAT

NUMBER_OF_SETS 8
BEGIN_DATA
0 99.9936 99.9936 99.9936 96.420000 100.000000 82.490000 
1 0.0000 17.5012 57.1763 4.720455 3.398582 20.705558 
2 20.9935 33.2744 65.6511 10.626755 9.651096 28.677621 
3 66.5306 0.0000 5.3464 17.151722 8.260857 0.770801 
4 98.3274 78.9575 0.0000 63.915956 63.178604 3.903185 
5 85.7198 41.6920 0.0000 36.159399 26.013802 1.471623 
6 24.4892 56.1045 18.2673 13.118111 20.967563 4.734880 
7 0.0000 0.0000 0.0000 0.000000 0.000000 0.000000 
END_DATA
CTI1   

DESCRIPTOR "Argyll Calibration Target chart information 1"
ORIGINATOR "Argyll targen"
DEVICE_COMBINATION_VALUES "9"
CREATED "October 14, 2025"

NUMBER_OF_FIELDS 7
BEGIN_DATA_FORMAT
INDEX RGB_R RGB_G RGB_B XYZ_X XYZ_Y XYZ_Z 
END_DATA_FORMAT

NUMBER_OF_SETS 9
BEGIN_DATA
0 99.9936 99.9936 99.9936 96.420000 100.000000 82.490000 
1 0.0000 17.5012 57.1763 4.720455 3.398582 20.705558 
2 20.9935 33.2744 65.6511 10.626755 9.651096 28.677621 
3 66.5306 0.0000 5.3464 17.151722 8.260857 0.770801 
4 98.3274 78.9575 0.0000 63.915956 63.178604 3.903185 
5 85.7198 41.6920 0.0000 36.159399 26.013802 1.471623 
6 24.4892 56.1045 18.2673 13.118111 20.967563 4.734880 
7 0.0000 0.0000 0.0000 0.000000 0.000000 0.000000 
8 49.0030 49.0030 49.0030 17.179974 18.638919 28.659348 
END_DATA

