SpyderCheckr24/reference-front.ti3
CTI3   

DESCRIPTOR "Real SpyderCheckr 24 measurements measured at D65/10 and recomputed with chartread"
ORIGINATOR "Argyll chartread"
CREATED "Wed Oct 15 11:28:38 2025"
DEVICE_CLASS "OUTPUT"
TOTAL_INK_LIMIT "300.0"
COLOR_REP "iRGB_XYZ"
TARGET_INSTRUMENT "CR30"
INSTRUMENT_FILTER "D65"

NUMBER_OF_FIELDS 8
BEGIN_DATA_FORMAT
SAMPLE_ID SAMPLE_LOC RGB_R RGB_G RGB_B XYZ_X XYZ_Y XYZ_Z 
END_DATA_FORMAT

NUMBER_OF_SETS 24
BEGIN_DATA
1 "A1" 99.99390 99.99390 99.99390 73.70726 76.93133 60.95981 
2 "A2" 81.19631 81.19631 81.19631 46.56916 48.45339 39.13567 
3 "A3" 63.70336 63.70336 63.70336 28.08439 29.17982 23.62697 
4 "A4" 45.84115 45.84115 45.84115 14.57074 15.12872 12.27711 
5 "A5" 26.75822 26.75822 26.75822 6.244345 6.453944 5.223002 
6 "A6" 0.00000 0.00000 0.00000 2.153032 2.240110 1.908510 
7 "B1" 0.00000 53.81094 64.01312 11.07136 16.41941 22.78346 
8 "B2" 71.22606 29.32937 59.49340 22.47279 15.08471 18.76780 
9 "B3" 98.32761 78.95781 0.00000 49.00015 48.86939 4.664393 
10 "B4" 66.53086 0.00000 5.346761 14.96545 8.463443 2.492163 
11 "B5" 24.48920 56.10437 18.26658 11.79142 17.74880 5.280692 
12 "B6" 0.00000 17.50057 57.17556 5.701066 4.818059 16.83260 
13 "C1" 85.71908 41.69223 0.00000 29.47904 22.04055 3.020100 
14 "C2" 20.99336 33.27382 65.65042 10.19830 9.592009 22.81207 
15 "C3" 74.54185 27.22667 35.59167 22.22176 14.87318 8.362531 
16 "C4" 31.51446 13.09529 41.30617 6.894645 5.193831 9.592676 
17 "C5" 63.93225 71.80133 2.720684 28.09842 34.31267 5.768358 
18 "C6" 92.87709 59.12413 0.00000 38.45039 32.96184 4.340554 
19 "D1" 37.55245 76.15778 66.75212 26.05831 35.53099 26.82012 
20 "D2" 49.96719 51.20165 72.51698 20.80288 20.20660 28.69145 
21 "D3" 30.46311 37.69436 15.33989 8.269478 9.998646 3.906307 
22 "D4" 34.30991 48.29328 64.40528 15.04412 16.32653 22.65414 
23 "D5" 76.65980 57.63790 49.29274 30.86821 28.30133 15.29290 
24 "D6" 40.55390 23.83917 16.36683 8.313006 7.241282 3.610357 
END_DATA
